!!!COM: Beethoven, Ludwig van
!!!CDT: 1770///-1827///
!!!ODT: 1798///-1800///
!!!OTL: String Quartet No. 3 in D Major, Op. 18, No. 3
!!!OPS: Op. 18
!!!ONM: No. 3
!!!OMV: Mvmt. 4
!!!OMD: Presto
!!!PDT: 1801///
!!!PPP: Vienna
!!!PPR: C. Haslinger qm Tobias
!!!ODE: Dem F&uuml;rsten von Lobkowitz gewidmet
!!!MPD: 1798///-1800///
**kern	**dynam	**kern	**dynam	**kern	**dynam	**kern	**dynam
*staff4	*staff4	*staff3	*staff3	*staff2	*staff2	*staff1	*staff1
*Icello	*Icello	*Iviola	*Iviola	*Ivioln	*Ivioln	*Ivioln	*Ivioln
*>[I,A,A1,A,A2]	*>[I,A,A1,A,A2]	*>[I,A,A1,A,A2]	*>[I,A,A1,A,A2]	*>[I,A,A1,A,A2]	*>[I,A,A1,A,A2]	*>[I,A,A1,A,A2]	*>[I,A,A1,A,A2]
*>norep[I,A,A2]	*>norep[I,A,A2]	*>norep[I,A,A2]	*>norep[I,A,A2]	*>norep[I,A,A2]	*>norep[I,A,A2]	*>norep[I,A,A2]	*>norep[I,A,A2]
*>I	*>I	*>I	*>I	*>I	*>I	*>I	*>I
*clefF4	*clefF4	*clefC3	*clefC3	*clefG2	*clefG2	*clefG2	*clefG2
*k[f#c#]	*k[f#c#]	*k[f#c#]	*k[f#c#]	*k[f#c#]	*k[f#c#]	*k[f#c#]	*k[f#c#]
*D:	*D:	*D:	*D:	*D:	*D:	*D:	*D:
*M6/8	*M6/8	*M6/8	*M6/8	*M6/8	*M6/8	*M6/8	*M6/8
*MM204	*MM204	*MM204	*MM204	*MM204	*MM204	*MM204	*MM204
4r	.	4r	.	4r	.	8dd\L	p
.	.	.	.	.	.	8cc#\J	.
=2	=2	=2	=2	=2	=2	=1	=1
2.r	.	2.r	.	2.r	.	8dd\L	.
.	.	.	.	.	.	8b\	.
.	.	.	.	.	.	8a#\J	.
.	.	.	.	.	.	8b/L	.
.	.	.	.	.	.	8g/	.
.	.	.	.	.	.	8f#/J	.
=3	=3	=3	=3	=3	=3	=2	=2
*>A	*>A	*>A	*>A	*>A	*>A	*>A	*>A
2.r	.	2.r	.	2.r	.	8g/L	.
.	.	.	.	.	.	8e/	.
.	.	.	.	.	.	8d#/J	.
.	.	.	.	.	.	8e/L	.
.	.	.	.	.	.	8f#/	.
.	.	.	.	.	.	8g/J	.
=4	=4	=4	=4	=4	=4	=3	=3
2.r	.	2.r	.	2.r	.	8a\L	.
.	.	.	.	.	.	8b\	.
.	.	.	.	.	.	8cc#\J	.
.	.	.	.	.	.	8dd\L	.
.	.	.	.	.	.	8ee\	.
.	.	.	.	.	.	8ff#\J	.
=5	=5	=5	=5	=5	=5	=4	=4
2.r	.	2.r	.	4r	.	4gg\	.
.	.	.	.	8r	.	8r	.
.	.	.	.	8r	.	8r	.
.	.	.	.	8dd\L	p	8ff#\L	.
.	.	.	.	8cc#\J	.	8ee#\J	.
=6	=6	=6	=6	=6	=6	=5	=5
2.r	.	2.r	.	8dd\L	.	8ff#\L	.
.	.	.	.	8b\	.	8dd\	.
.	.	.	.	8a#\J	.	8cc#\J	.
.	.	.	.	8b/L	.	8dd\L	.
.	.	.	.	8g/	.	8b\	.
.	.	.	.	8f#/J	.	8a#\J	.
=7	=7	=7	=7	=7	=7	=6	=6
2.r	.	2.r	.	8g/L	.	8b/L	.
.	.	.	.	8e/	.	8g/	.
.	.	.	.	8d#/J	.	8f#/J	.
.	.	.	.	8e/L	.	8g/L	.
.	.	.	.	8f#/	.	8a/	.
.	.	.	.	8g/J	.	8b/J	.
=8	=8	=8	=8	=8	=8	=7	=7
2.r	.	2.r	.	8a\L	.	8cc#\L	.
.	.	.	.	8b\	.	8dd\	.
.	.	.	.	8cc#\J	.	8ee\J	.
.	.	.	.	8dd\L	.	8ff#\L	.
.	.	.	.	8ee\	.	8gg\	.
.	.	.	.	8ff#\J	.	8aa\J	.
=9	=9	=9	=9	=9	=9	=8	=8
2.r	.	2.r	.	4gg\	.	4bb\	.
.	.	.	.	8r	.	8r	.
.	.	.	.	8r	.	8r	.
.	.	.	.	8ff#\L	.	8aa\L	.
.	.	.	.	8ee#\J	.	8gg#\J	.
=10	=10	=10	=10	=10	=10	=9	=9
4r	.	4r	.	8ff#\L	.	8aa\L	.
.	.	.	.	8gg\	.	8bb\	.
8r	.	8r	.	8aa\J	.	8cccn\J	.
[4.d#\	.	[4.f#\	.	4aa\	.	4cccn\	.
.	.	.	.	8aa\	.	8cccn\	.
=11	=11	=11	=11	=11	=11	=10	=10
(4.d#\]	<	(4.f#\]	<	4.aa\	.	4.cccn\	.
4e\)	>	4g\)	>	8gg\L	.	8bb\	.
.	.	.	.	8aa\	.	8cccn\L	.
8r	.	8r	.	8gg#\J	.	8bb\J	.
=12	=12	=12	=12	=12	=12	=11	=11
4r	.	4r	.	8aa\L	.	8cccn\L	.
.	.	.	.	8bb\	.	8ddd\	.
8r	.	8r	.	8cccn\J	.	8eee\J	.
(4.e\	.	(4.g\	.	4cccn\	.	4eee\	.
.	.	.	.	8cccn\	.	8eee\	.
=13	=13	=13	=13	=13	=13	=12	=12
4.f#\	<	4.a\	<	4.cccn\	.	4.eee\	.
4g\)	>	4b\)	>	8bb\L	.	8ddd\	.
.	.	.	.	8ee\	.	8gg\L	.
8r	.	8r	.	8dd#\J	.	8ff#\J	.
=14	=14	=14	=14	=14	=14	=13	=13
4r	.	4r	.	8ee\L	.	8gg\L	.
.	.	.	.	8ff#\	.	8aa\	.
8r	.	8r	.	8gg\J	.	8bb\J	.
(4.B\	.	(4.d\	.	4gg\	.	4bb\	.
.	.	.	.	8gg\	.	8bb\	.
=15	=15	=15	=15	=15	=15	=14	=14
4.c#\	.	4.e\	.	4.gg\	.	4.bb\	.
4d\)	.	4f#\)	.	4ff#\	.	4aa\	.
8D\	.	8d\	.	[8ff#\	.	[8aa\	.
=16	=16	=16	=16	=16	=16	=15	=15
4G\	.	4B/	.	4ff#\]	.	4aa\]	.
8E\	.	8b\	.	[8ee\	.	[8gg\	.
4A\	.	4a\	.	4ee\]	.	4gg\]	.
8AA/	.	8g\	.	8cc#\	.	8ee\	.
=17	=17	=17	=17	=17	=17	=16	=16
[4.D\	.	(4.g\	.	4.cc#\	.	4.ee\	.
8D\L]	.	8f#/L)	.	4dd\	.	4ff#\	.
(8F#\	.	(8A/	.	.	.	.	.
8E#\J)	.	8G#/J)	.	8r	.	8r	.
=18	=18	=18	=18	=18	=18	=17	=17
(8F#\L	.	(8A/L	.	2.r	.	2.r	.
8G\)	.	8B/)	.	.	.	.	.
8A\J	.	8cn/J	.	.	.	.	.
8A\L	.	8cn\L	.	.	.	.	.
8A\	.	8cn\	.	.	.	.	.
8A\J	.	8cn\J	.	.	.	.	.
=19	=19	=19	=19	=19	=19	=18	=18
(4.A\	.	(4.cn\	.	4.d#/	.	4.dd#\	.
8G\L)	.	8B/L)	.	4e/	.	4ee\	.
(8A\	.	(8cn/	.	.	.	.	.
8G#\J)	.	8B/J)	.	8r	.	8r	.
=20	=20	=20	=20	=20	=20	=19	=19
(8A\L	.	(8cn\L	.	2.r	.	2.r	.
8B\)	.	8d\)	.	.	.	.	.
8cn\J	.	8e\J	.	.	.	.	.
8cn\L	.	8e\L	.	.	.	.	.
8cn\	.	8e\	.	.	.	.	.
8cn\J	.	8e\J	.	.	.	.	.
=21	=21	=21	=21	=21	=21	=20	=20
(4.cn\	.	(4.e\	.	4.f#/	.	4.ff#\	.
4B\)	.	4d\)	.	8g\L	.	8gg\L	.
.	.	.	.	8ee\	.	8gg\	.
8r	.	8r	.	8dd#\J	.	8ff#\J	.
=22	=22	=22	=22	=22	=22	=21	=21
2.r	.	2.r	.	8ee\L	.	8gg\L	.
.	.	.	.	8ff#\	.	8aa\	.
.	.	.	.	8gg\J	.	8bb\J	.
.	.	.	.	8gg\L	.	8bb\L	.
.	.	.	.	8gg\	.	8bb\	.
.	.	.	.	8gg\J	.	8bb\J	.
=23	=23	=23	=23	=23	=23	=22	=22
(4.A\	.	(4.c#\	.	4.gg\	.	4.bb\	.
4g\)	.	4a\)	.	4cc#\	.	4ee\	.
8r	.	8r	.	8r	.	8r	.
=24	=24	=24	=24	=24	=24	=23	=23
(8A\L	.	(8c#\L	.	8gg\L	.	8bb\L	.
8g\J)	.	8a\J)	.	8cc#\J	.	8ee\J	.
8r	.	8r	.	8r	.	8r	.
(8A\L	.	(8c#\L	.	8gg\L	.	8bb\L	.
8g\J)	.	8a\J)	.	8cc#\J	.	8ee\J	.
8r	.	8r	.	8r	.	8r	.
=25	=25	=25	=25	=25	=25	=24	=24
(8A\	.	(8c#\	.	8gg\	.	8bb\	.
[4g\)	.	[4a\)	.	[4cc#\	.	[4ee\	.
4g\]	.	4a\]	.	4cc#\]	.	4ee\]	.
8f#\	.	8a\	.	[8dd\	.	[8ff#\	.
=26	=26	=26	=26	=26	=26	=25	=25
4G\	.	4b\	.	4dd\]	.	4ff#\]	.
8E\	.	8B/	.	[8ee\	.	[8gg\	.
4A\	.	4A/	.	4ee\]	.	4gg\]	.
8AA/	.	8G/	.	8cc#\	.	8ee\	.
=27	=27	=27	=27	=27	=27	=26	=26
4D\	.	4F#/	.	8dd\L	p	4dd\	.
.	.	.	.	8a\	.	.	.
8r	.	8r	.	8a\J	.	8r	.
4.r	.	4f#\	p	8dd\L	.	4aa\	p
.	.	.	.	8a\	.	.	.
.	.	8r	.	8a\J	.	8ddd\	.
=28	=28	=28	=28	=28	=28	=27	=27
2.r	.	4g\	.	8ee\L	.	8ddd\L	.
.	.	.	.	8a\	.	8ccc#\	.
.	.	8r	.	8a\J	.	8bb\J	.
.	.	4c#\	.	8ee\L	.	8bb\L	.
.	.	.	.	8a\	.	8aa\	.
.	.	8r	.	8a\J	.	8gg\J	.
=29	=29	=29	=29	=29	=29	=28	=28
2.r	.	4d\	.	8ff#\L	.	8gg\L	.
.	.	.	.	8f#\	.	8ff#\	.
.	.	8r	.	8f#\J	.	8ee\J	.
.	.	4B/	.	8d/L	.	8ee\L	.
.	.	.	.	8f#/	.	8dd\	.
.	.	8r	.	8f#/J	.	8cc#\J	.
=30	=30	=30	=30	=30	=30	=29	=29
2.r	.	4G/	.	8d/L	.	8cc#\L	.
.	.	.	.	8e/	.	8b\	.
.	.	8r	.	8e/J	.	8ee\J	.
.	.	4A/	.	8c#/L	.	8ee\L	.
.	.	.	.	8e/	.	8cc#\	.
.	.	8r	.	8e/J	.	8a\J	.
=31	=31	=31	=31	=31	=31	=30	=30
4D\	.	8D/L	.	8d/L	.	4dd\	.
.	.	8A/	.	8a/	.	.	.
8r	.	8A/J	.	8a/J	.	8r	.
4F#\	.	8d/L	.	8dd\L	.	4aa\	.
.	.	8A/	.	8a\	.	.	.
8r	.	8A/J	.	8a\J	.	8ddd\	.
=32	=32	=32	=32	=32	=32	=31	=31
4G\	.	8e/L	.	8ee\L	.	8ddd\L	.
.	.	8A/	.	8a\	.	8ccc#\	.
8r	.	8A/J	.	8a\J	.	8bb\J	.
4C#/	.	8e/L	.	8ee\L	.	8bb\L	.
.	.	8A/	.	8a\	.	8aa\	.
8r	.	8A/J	.	8a\J	.	8gg\J	.
=33	=33	=33	=33	=33	=33	=32	=32
4D\	.	8d/L	.	8ff#\L	.	8gg\L	.
.	.	8A/	.	8f#\	.	8ff#\	.
8r	.	8A/J	.	8f#\J	.	8ee\J	.
4BB/	.	8B\L	.	8d/L	.	8ee\L	.
.	.	8d\	.	8f#/	.	8dd\	.
8r	.	8d\J	.	8f#/J	.	8cc#\J	.
=34	=34	=34	=34	=34	=34	=33	=33
4GG/	.	8B\L	.	8d/L	.	8cc#\L	.
.	.	8d\	.	8e/	.	8b\	.
8r	.	8d\J	.	8e/J	.	8ee\J	.
4AA/	.	8E/L	.	8c#/L	.	8ee\L	.
.	.	8G/	.	8e/	.	8cc#\	.
8r	.	8G/J	.	8e/J	.	8a\J	.
=35	=35	=35	=35	=35	=35	=34	=34
8DD/L	.	8F#/L	.	8d/L	.	4dd\	.
(8DD/	.	(8D/	.	8d/	.	.	.
8CC#/J	.	8C#/J	.	8c#/J	.	8r	.
4DD/)	.	4D/)	.	4d/	.	4r	.
8r	.	8B/	.	8dd\	.	8gg\	.
=36	=36	=36	=36	=36	=36	=35	=35
2.r	.	4c#\	.	4a/	.	4cc#\	.
.	.	8d\	.	8a/	.	8ff#\	.
.	.	4F#/	.	4a/	.	4dd\	.
.	.	8A/	.	8cc#\	.	8ee\	.
=37	=37	=37	=37	=37	=37	=36	=36
8r	.	8d/L	.	8dd/L	.	4ff#\	.
(8DD/L	.	(8D/	.	8d/	.	.	.
8CC#/J	.	8C#/J	.	8c#/J	.	8r	.
4DD/)	.	4D/)	.	4d/	.	4r	.
8r	.	8B/	.	8dd\	.	8gg\	.
=38	=38	=38	=38	=38	=38	=37	=37
2.r	.	4c#\	.	4a/	.	4ee\	.
.	.	8d\	.	8a/	.	8ff#\	.
.	.	4F#/	.	4a/	.	4dd\	.
.	.	8A/	.	8cc#\	.	8ee\	.
=39	=39	=39	=39	=39	=39	=38	=38
8r	.	8d/L	.	8dd/L	.	4ff#\	.
(8DD/L	<	(8D/	<	8d/	<	.	.
8CC#/J	<	8C#/J	<	8c#/J	<	8r	.
4DD/)	.	4D/)	.	4d/	.	8r	.
.	.	.	.	.	.	8ff#\L	<
8r	.	8r	.	8r	.	8ee#\J	<
=40	=40	=40	=40	=40	=40	=39	=39
8r	.	8r	.	8r	.	4ff#\	.
(8FF#/L	.	(8F#/L	.	8f#/L	.	.	.
8EE#/J	.	8E#/J	.	8e#/J	.	8r	.
4FF#/)	.	4F#/)	.	4f#/	.	8r	.
.	.	.	.	.	.	8aa\L	.
8r	.	8r	.	8r	.	8gg#\J	.
=41	=41	=41	=41	=41	=41	=40	=40
8r	.	8r	.	8r	.	4aa\	.
(8AA/L	.	(8A/L	.	8a/L	.	.	.
8GG#/J	.	8G#/J	.	8g#/J	.	8r	.
4AA/)	.	4A/)	.	4a/	.	8r	.
.	.	.	.	.	.	8cccn\L	.
8r	.	8r	.	8r	.	8bb\J	.
=42	=42	=42	=42	=42	=42	=41	=41
(2.FFn/	.	(2.A/	.	2.a/	.	8cccn\L	.
.	.	.	.	.	.	8aa\	.
.	.	.	.	.	.	8bb\J	.
.	.	.	.	.	.	8cccn\L	.
.	.	.	.	.	.	8ddd\	.
.	.	.	.	.	.	8ddd#\J	.
=43	=43	=43	=43	=43	=43	=42	=42
8EE/L)	.	4G#/)	.	4g#/	.	4eee\	.
(8EE/	.	.	.	.	.	.	.
8DD#/J	.	8r	.	8r	.	8r	.
8EE/L)	.	(4.g#\	p	4.dd\	p	4.fffn\	p
8EE/	.	.	.	.	.	.	.
8EE/J	.	.	.	.	.	.	.
=44	=44	=44	=44	=44	=44	=43	=43
8EE/L	.	4.a\	.	4.ccn\	.	4.eee\	.
8EE/	.	.	.	.	.	.	.
8EE/J	.	.	.	.	.	.	.
8EE/L	.	4.fn\	.	4.g#/	.	4.ddd\	.
8EE/	.	.	.	.	.	.	.
8EE/J	.	.	.	.	.	.	.
=45	=45	=45	=45	=45	=45	=44	=44
8EE/L	.	4.e\	.	4.a/	.	4.cccn\	.
8EE/	.	.	.	.	.	.	.
8EE/J	.	.	.	.	.	.	.
8EE/L	.	4.G#/	.	4.d/	.	4.bb\	.
8EE/	.	.	.	.	.	.	.
8EE/J	.	.	.	.	.	.	.
=46	=46	=46	=46	=46	=46	=45	=45
8EE/L	.	4.A/)	.	4.cn/	.	4.aa\	.
8AA/	.	.	.	.	.	.	.
8Cn/J	.	.	.	.	.	.	.
8E\L	.	(4.A/	.	4.d#/	.	4.ff#\	.
8E\	.	.	.	.	.	.	.
8E\J	.	.	.	.	.	.	.
=47	=47	=47	=47	=47	=47	=46	=46
8E/L	.	4G#/)	.	4e/	.	4ee\	.
(8EE/	.	.	.	.	.	.	.
8DD#/J	.	8r	.	8r	.	8r	.
8EE/L)	.	(4.d\	.	4.g#/	.	4.ffn\	.
8EE/	.	.	.	.	.	.	.
8EE/J	.	.	.	.	.	.	.
=48	=48	=48	=48	=48	=48	=47	=47
8EE/L	.	4.cn\	.	4.a/	.	4.ee\	.
8EE/	.	.	.	.	.	.	.
8EE/J	.	.	.	.	.	.	.
8EE/L	.	4.G#/	.	4.fn/	.	4.dd\	.
8EE/	.	.	.	.	.	.	.
8EE/J	.	.	.	.	.	.	.
=49	=49	=49	=49	=49	=49	=48	=48
8EE/L	.	4.A/	.	4.e/	.	4.ccn\	.
8EE/	.	.	.	.	.	.	.
8EE/J	.	.	.	.	.	.	.
8EE/L	.	4.D/	.	4.G#/	.	4.b\	.
8EE/	.	.	.	.	.	.	.
8EE/J	.	.	.	.	.	.	.
=50	=50	=50	=50	=50	=50	=49	=49
8EE/L	.	4.Cn/)	.	4.A/	.	4.a/	.
8AA/	.	.	.	.	.	.	.
8Cn/J	.	.	.	.	.	.	.
8E\L	.	(4.A/	.	4.d#/	.	4.f#/	.
8E\	.	.	.	.	.	.	.
8E\J	.	.	.	.	.	.	.
=51	=51	=51	=51	=51	=51	=50	=50
4E\	.	8G#/L)	.	8e/L	.	8e/L	.
.	.	(8G#/	.	8B/	.	8e/	.
8r	.	8A/J	.	8cn/J	.	8d#/J	.
4.r	.	8G#/L)	.	8B/L	.	8e/L	.
.	.	8A/	.	8cn/	.	8d#/	.
.	.	8G#/J	.	8B/J	.	8e/J	.
=52	=52	=52	=52	=52	=52	=51	=51
2.r	.	8B/L	.	8d/L	.	8e#/L	.
.	.	(8A#/	.	8c#/	.	8f#/	.
.	.	8B/J	.	8d/J	.	8e#/J	.
.	.	8A#/L)	.	8c#/L	.	8f#/L	.
.	.	8B/	.	8d/	.	8e#/	.
.	.	8A#/J	.	8c#/J	.	8f#/J	.
=53	=53	=53	=53	=53	=53	=52	=52
2.r	.	8d\L	.	8fn/L	.	8g#/L	.
.	.	(8c#\	.	8e/	.	8a/	.
.	.	8d\J	.	8fn/J	.	8g#/J	.
.	.	8c#\L)	.	8e/L	.	8a/L	.
.	.	8d\	.	8fn/	.	8g#/	.
.	.	8c#\J	.	8e/J	.	8a/J	.
=54	=54	=54	=54	=54	=54	=53	=53
2.r	.	(8e\L	<	8g/L	<	8a#/L	<
.	.	8d#\)	<	8f#/	<	8b/	<
.	.	8d#\J	.	8f#/J	.	8b/J	.
.	.	(8f#\L	.	8a/L	.	8b#\L	.
.	.	8e\)	.	8g#/	.	8cc#\	.
.	.	8e\J	.	8g#/J	.	8cc#\J	.
=55	=55	=55	=55	=55	=55	=54	=54
2.r	.	(8g\L	.	8b-/L	.	8cc#\L	.
.	.	8f#\)	.	8a/	.	8dd\	.
.	.	8f#\J	.	8a/J	.	8dd\J	.
.	.	(8a\L	.	8ccn\L	.	8dd#\L	.
.	.	8g#\)	.	8b\	.	8ee\	.
.	.	8g#\J	.	8b\J	.	8ee\J	.
=56	=56	=56	=56	=56	=56	=55	=55
(2.E\	.	(8b\L	.	8dd\L	.	8ee#\L	.
.	.	8a#\)	.	8cc#\	.	8ff#\	.
.	.	8a#\J	.	8cc#\J	.	8ff#\J	.
.	.	(8cc#\L	.	8ee\L	.	8ff##\L	.
.	.	8b\)	.	8dd\	.	8gg#\	.
.	.	8b\J	.	8dd\J	.	8gg#\J	.
=57	=57	=57	=57	=57	=57	=56	=56
4AA/)	p	4a\	p	8cc#\L	p	4aa\	p
.	.	.	.	8cc#\	.	.	.
8r	.	8r	.	8cc#\J	.	8ee\	.
4.r	.	(4.a\	.	8cc#\L	.	4ee\	.
.	.	.	.	8b#\	.	.	.
.	.	.	.	8cc#\J	.	8aa\	.
=58	=58	=58	=58	=58	=58	=57	=57
2.r	.	4b\)	.	8dd\L	.	4gg#\	.
.	.	.	.	8dd\	.	.	.
.	.	8r	.	8dd\J	.	8ee\	.
.	.	(4.b\	.	8dd\L	.	4ee\	.
.	.	.	.	8cc#\	.	.	.
.	.	.	.	8dd\J	.	8gg#\	.
=59	=59	=59	=59	=59	=59	=58	=58
2.r	.	8a\L)	.	8cc#\L	.	4aa\	.
.	.	8cc#\	.	8ee\	.	.	.
.	.	8cc#\J	.	8ee\J	.	8aa\	.
.	.	8g#\L	.	8ee\L	.	4aa#\	.
.	.	8g#\	.	8ee\	.	.	.
.	.	8g#\J	.	8ee\J	.	8bb\	.
=60	=60	=60	=60	=60	=60	=59	=59
2.r	.	8a\L	.	8ee\L	.	4cccn\	.
.	.	8a\	.	8ee\	.	.	.
.	.	8g\J	.	8a\J	.	8ccc#\	.
.	.	8f#\L	.	8a/L	.	4ddd\	.
.	.	8f#\	.	8a/	.	.	.
.	.	8fn\J	.	8a/J	.	8ddd#\	.
=61	=61	=61	=61	=61	=61	=60	=60
4r	.	4e\	.	8g#/L	.	4eee\	.
.	.	.	.	8e/	.	.	.
8r	.	8r	.	8e/J	.	8eee\	.
(4.E\	p	4.r	.	8g#/L	.	4ee\	.
.	.	.	.	8e/	.	.	.
.	.	.	.	8e/J	.	8ee\	.
=62	=62	=62	=62	=62	=62	=61	=61
4F#\)	.	2.r	.	8a/L	.	4dd#\	.
.	.	.	.	8e/	.	.	.
8r	.	.	.	8e/J	.	8ddd\	.
(4.G#\	.	.	.	8b/L	.	4dd\	.
.	.	.	.	8e/	.	.	.
.	.	.	.	8e/J	.	8dd\	.
=63	=63	=63	=63	=63	=63	=62	=62
4A\)	.	2.r	.	8cc#/L	.	4cc#\	.
.	.	.	.	8e/	.	.	.
8r	.	.	.	8e/J	.	8r	.
4D\	.	.	.	8d/L	.	8ee#\L	.
.	.	.	.	8f#/	.	8ff#\	.
8r	.	.	.	8d/J	.	8b\J	.
=64	=64	=64	=64	=64	=64	=63	=63
4E\	.	2.r	.	8c#/L	.	8dd#\L	.
.	.	.	.	8e/	.	8ee\	.
8r	.	.	.	8c#/J	.	8a\J	.
4EE/	.	.	.	8B/L	.	8cc#\L	.
.	.	.	.	8d/	.	8dd\	.
8r	.	.	.	8B/J	.	8g#\J	.
=65	=65	=65	=65	=65	=65	=64	=64
4AA/	.	8r	.	8c#/L	.	4a/	.
.	.	8c#\L	p	8A/ 8e/	p	.	.
8EE/	.	8c#\J	.	8A/J 8e/	.	8r	.
(4EE/	.	8c#\L	.	8A/L 8e/	.	4.r	.
.	.	8c#\	.	8A/ 8e/	.	.	.
8AA/)	.	8c#\J	.	8A/J 8e/	.	.	.
=66	=66	=66	=66	=66	=66	=65	=65
4GG/	.	8d\L	.	8B/L 8e/	.	2.r	.
.	.	8d\	.	8B/ 8e/	.	.	.
8EE/	.	8d\J	.	8B/J 8e/	.	.	.
(4EE/	.	8d\L	.	8B/L 8e/	.	.	.
.	.	8d\	.	8B/ 8e/	.	.	.
8GG/)	.	8d\J	.	8B/J 8e/	.	.	.
=67	=67	=67	=67	=67	=67	=66	=66
4AA/	.	8c#\L	.	8A/L	.	8r	.
.	.	8c#\	.	8e/	.	8r	.
8r	.	8c#\J	.	8e/J	.	8ee\	.
4.A\	.	8c#\L	.	8e/L	.	4ee\	.
.	.	8c#\	.	8e/	.	.	.
.	.	8c#\J	.	8e/J	.	8aa\	.
=68	=68	=68	=68	=68	=68	=67	=67
4B\	.	8d\L	.	8e/L	.	4gg#\	.
.	.	8d\	.	8e/	.	.	.
8r	.	8d\J	.	8e/J	.	8ee\	.
(4.B\	.	8d\L	.	8e/L	.	4ee\	.
.	.	8d\	.	8e/	.	.	.
.	.	8d\J	.	8e/J	.	8gg#\	.
=69	=69	=69	=69	=69	=69	=68	=68
4A\)	.	8c#/L	.	8e/L	.	4aa\	.
.	.	8A/	.	8c#/	.	.	.
8A\	.	8A/J	.	8c#/J	.	8r	.
4AA/	.	8A/L	.	8c#/L	.	4.r	.
.	.	8A/	.	8c#/	.	.	.
8AA/	.	8A/J	.	8c#/J	.	.	.
=70	=70	=70	=70	=70	=70	=69	=69
4GG#/	.	8B/L	.	8d/L	.	2.r	.
.	.	8B/	.	8d/	.	.	.
8G\	.	8B/J	.	8d/J	.	.	.
4GG/	.	8c#\L	.	8e/L	.	.	.
.	.	8c#\	.	8e/	.	.	.
8GG/	.	8c#\J	.	8e/J	.	.	.
=71	=71	=71	=71	=71	=71	=70	=70
4FF#/	.	4d\	.	8f#/L	.	8r	.
.	.	.	.	8A/	.	8r	.
8r	.	8r	.	8A/J	.	8aa\	.
4AA/	.	4r	.	8c#/L	.	4a/	.
.	.	.	.	8A/	.	.	.
8r	.	8r	.	8A/J	.	8a/	.
=72	=72	=72	=72	=72	=72	=71	=71
4BB/	.	2.r	.	8d/L	.	4g#/	.
.	.	.	.	8A/	.	.	.
8r	.	.	.	8A/J	.	8gg\	.
4C#/	.	.	.	8e/L	.	4g/	.
.	.	.	.	8A/	.	.	.
8r	.	.	.	8A/J	.	8g/	.
=73	=73	=73	=73	=73	=73	=72	=72
4D\	.	8r	.	8f#/L	.	4f#/	.
.	.	8A/L	.	8a/	.	.	.
8r	.	8A/J	.	8a/J	.	8aa\	.
4AA/	<	8c#/L	<	8cc#/L	<	4a/	<
.	.	8A/	<	8a/	<	.	.
8r	<	8A/J	.	8a/J	.	8aa\	<
=74	=74	=74	=74	=74	=74	=73	=73
4BB/	.	8d/L	.	8dd\L	.	4g#/	.
.	.	8A/	.	8a\	.	.	.
8r	.	8A/J	.	8a\J	.	8gg#\	.
4C#/	.	8e/L	.	8ee\L	.	4g/	.
.	.	8A/	.	8a\	.	.	.
8r	.	8A/J	.	8a\J	.	8gg\	.
=75	=75	=75	=75	=75	=75	=74	=74
4D\	.	8d/L	.	8dd\L	.	4f#/	.
.	.	8A/	.	8a\	.	.	.
8r	.	8A/J	.	8a\J	.	8ff#\	.
4D\	.	8d/L	.	8dd\L	.	4fn/	.
.	.	8A/	.	8a\	.	.	.
8r	.	8A/J	.	8a\J	.	8ffn\	.
=76	=76	=76	=76	=76	=76	=75	=75
4E\	.	8c#/L	.	8cc#/L	.	4e/	.
.	.	8A/	.	8a/	.	.	.
8r	.	8A/J	.	8a/J	.	8ee\	.
4F#\	.	8cn/L	.	8ccn/L	.	4d#/	.
.	.	8A/	.	8a/	.	.	.
8r	.	8A/J	.	8a/J	.	8dd#\	.
=77	=77	=77	=77	=77	=77	=76	=76
4E\	.	4B/	.	4g#/	.	4d/ 4dd/	.
8r	.	8r	.	8r	.	16gg#\LL	.
.	.	.	.	.	.	16aa\JJ	.
4.r	.	4.r	.	4.r	.	8bb\L	.
.	.	.	.	.	.	8gg#\	.
.	.	.	.	.	.	8dd\J	.
=78	=78	=78	=78	=78	=78	=77	=77
4E\	.	4e\	.	4a/	.	4cc#\	.
8r	.	8r	.	8r	.	16ccc#\LL	.
.	.	.	.	.	.	16ddd\JJ	.
4r	.	4r	.	4r	.	8eee\L	.
.	.	.	.	.	.	8ccc#\	.
8r	.	8r	.	8r	.	8aa\J	.
=79	=79	=79	=79	=79	=79	=78	=78
4E\	.	4e\	.	4g#/	.	4dd\	.
8r	.	8r	.	8r	.	16gg#\LL	.
.	.	.	.	.	.	16aa\JJ	.
4r	.	4r	.	4r	.	8bb\L	.
.	.	.	.	.	.	8gg#\	.
8r	.	8r	.	8r	.	8ee\J	.
=80	=80	=80	=80	=80	=80	=79	=79
4r	.	4r	.	4r	.	8dd\L	.
.	.	.	.	.	.	8b\	.
8r	.	8r	.	8r	.	8g#\J	.
8EE/L	ff	8E/L	ff	8e/L	ff	8e/L	ff
8EE/	.	8E/	.	8e/	.	8e/	.
8EE/J	.	8E/J	.	8e/J	.	8e/J	.
=81	=81	=81	=81	=81	=81	=80	=80
(2.FFn/	p	(4Fn/	p	4fn/	.	4fn/	.
.	.	8Cn/	.	8r	.	8r	.
.	.	4Fn/	.	4r	.	4r	.
.	.	8Cn/)	.	8r	.	8a/	p
=82	=82	=82	=82	=82	=82	=81	=81
2.EE/)	.	(4G/	.	2.r	.	4b-\	.
.	.	8Cn/	.	.	.	8a/	.
.	.	4G/	.	.	.	4b-\	.
.	.	8Cn/)	.	.	.	8ccn\	.
=83	=83	=83	=83	=83	=83	=82	=82
(2.FFn/	.	(4Fn/	.	4r	.	4a/	.
.	.	8Cn/	.	8r	.	8r	.
.	.	4Fn/	.	4r	.	4r	.
.	.	8Cn/)	.	8a/	p	8aa\	.
=84	=84	=84	=84	=84	=84	=83	=83
2.EE/)	.	(4G/	.	4b-\	.	4bb-\	.
.	.	8Cn/	.	8a/	.	8aa\	.
.	.	4G/	.	4b-\	.	4bb-\	.
.	.	8Cn/)	.	8ccn\	.	8cccn\	.
=85	=85	=85	=85	=85	=85	=84	=84
(2.FFn/	.	(4Fn/	.	4a/	.	4aa\	.
.	.	8Cn/	.	8r	.	8r	.
.	.	4Fn/	.	4r	.	4r	.
.	.	8Cn/)	.	8a/	.	8aa\	.
=86	=86	=86	=86	=86	=86	=85	=85
2.EE/)	.	(4G/	.	4b-\	.	4bb-\	.
.	.	8Cn/	.	8a/	.	8aa\	.
.	.	4G/	.	4b-\	.	4bb-\	.
.	.	8Cn/)	.	8ccn\	.	8cccn\	.
=87	=87	=87	=87	=87	=87	=86	=86
4FFn/	.	4Fn/	.	4a/	.	4aa\	.
8r	.	8r	.	8r	.	8cccn\	pp
4r	.	4r	.	4r	.	4fffn\	.
8r	.	8r	.	8r	.	8r	.
=88	=88	=88	=88	=88	=88	=87	=87
(2.D#\	ff	(2.D#/	ff	2.d#/	ff	2.d#/	ff
=89	=89	=89	=89	=89	=89	=88	=88
8E\L)	.	8E\L)	.	8e/L	.	8e/L	.
8E\	.	8a\	.	8e/ 8cc#/	.	8a/	.
8E\J	.	8a\J	.	8e/J 8cc#/	.	8cc#/J	.
8E\L	.	8a\L	.	8e/L 8cc#/	.	8ee\L	.
8E\	.	8a\	.	8e/ 8cc#/	.	8aa\	.
8E\J	.	8a\J	.	8e/J 8cc#/	.	8ccc#\J	.
=90	=90	=90	=90	=90	=90	=89	=89
8E\L	.	8a\L	.	8e/L 8cc#/	.	4eee\	.
8E\	.	8a\	.	8e/ 8cc#/	.	.	.
8E\J	.	8a\J	.	8e/J 8cc#/	.	8r	.
8E\L	.	8b\L	.	8e/L 8dd/	.	4.gg#\	.
8E\	.	8b\	.	8e/ 8dd/	.	.	.
8E\J	.	8b\J	.	8e/J 8dd/	.	.	.
=91	=91	=91	=91	=91	=91	=90	=90
4A\	.	4a\	.	4e/ 4cc#/	.	4aa\	.
8r	.	8cn\	pp	8ccn\	pp	8r	.
4r	.	4fn\	.	4ffn\	.	4r	.
8r	.	8r	.	8r	.	8r	.
=92	=92	=92	=92	=92	=92	=91	=91
(2.E-\	ff	(2.E-/	ff	2.e-/	ff	2.e-/	ff
=93	=93	=93	=93	=93	=93	=92	=92
4D\)	.	4D/)	.	4d/	.	8d/L	.
.	.	.	.	.	.	8fn/	.
8r	.	8r	.	8r	.	8b-/J	.
4r	.	4d\	.	4b-\ 4ffn\	.	8dd\L	.
.	.	.	.	.	.	8ffn\	.
8r	.	8r	.	8r	.	8bb-\J	.
=94	=94	=94	=94	=94	=94	=93	=93
4D#\	.	4r	.	4r	.	8f#/L	.
.	.	.	.	.	.	8a/	.
8r	.	8r	.	8r	.	8ccn/J	.
4r	.	4d#\	.	4ccn\ 4aa\	.	8ff#\L	.
.	.	.	.	.	.	8aa\	.
8r	.	8r	.	8r	.	8cccn\J	.
=95	=95	=95	=95	=95	=95	=94	=94
4E\	.	4r	.	4r	.	8e/L	.
.	.	.	.	.	.	8a/	.
8r	.	8r	.	8r	.	8cc#/J	.
4r	.	4e\	.	4cc#\ 4aa\	.	8ee\L	.
.	.	.	.	.	.	8aa\	.
8r	.	8r	.	8r	.	8ccc#\J	.
=96	=96	=96	=96	=96	=96	=95	=95
4E\	.	4r	.	4r	.	8ddd\L	.
.	.	.	.	.	.	8bb\	.
8r	.	8r	.	8r	.	8gg#\J	.
4r	.	4e\	.	4b\ 4gg#\	.	8dd\L	.
.	.	.	.	.	.	8b\	.
8r	.	8r	.	8r	.	8g#\J	.
=97	=97	=97	=97	=97	=97	=96	=96
8AA/L	.	4A/	.	4cc#\ 4aa\	.	4a/	.
8C#/	.	.	.	.	.	.	.
8E/J	.	8r	.	8r	.	8r	.
(4F#\	.	8r	.	8r	.	8r	.
.	.	8b\L	.	8dd\L	.	8gg#\L	.
8E\)	.	8b\J	.	8dd\J	.	8gg#\J	.
=98	=98	=98	=98	=98	=98	=97	=97
8AA/L	.	4a\	.	4cc#\	.	4aa\	.
8C#/	.	.	.	.	.	.	.
8E/J	.	8r	.	8r	.	8r	.
(4F#\	.	8r	.	8r	.	8r	.
.	.	8b\L	.	8gg#\L	.	8ddd\L	.
8E\)	.	8b\J	.	8gg#\J	.	8ddd\J	.
=99	=99	=99	=99	=99	=99	=98	=98
8AA/L	.	4a\	.	4aa\	.	4ccc#\	.
8C#/	.	.	.	.	.	.	.
8E/J	.	8r	.	8r	.	8r	.
(4F#\	.	8r	.	8r	.	8r	.
.	.	8b\L	.	8dd\L	.	8gg#\L	.
8E\)	.	8b\J	.	8dd\J	.	8gg#\J	.
=100	=100	=100	=100	=100	=100	=99	=99
(4F#\	.	4a\	.	4cc#\	.	4aa\	.
8E\)	.	8r	.	8r	.	8r	.
(4F#\	.	8r	.	8r	.	8r	.
.	.	8B/L	.	8d/L	.	8g#/L	.
8E\)	.	8B/J	.	8d/J	.	8g#/J	.
=101	=101	=101	=101	=101	=101	=100	=100
4AA/	.	4A/	.	4c#/	.	8a\L	.
.	.	.	.	.	.	8cc#\	.
8r	.	8r	.	8r	.	8ee\J	.
8r	.	8r	.	8r	.	4ff#\	.
8E\L	.	8d\L	.	8g#/L	.	.	.
8E\J	.	8d\J	.	8g#/J	.	8ee\	.
=102	=102	=102	=102	=102	=102	=101	=101
4A\	.	4c#\	.	4a/	.	8a\L	.
.	.	.	.	.	.	8cc#\	.
8r	.	8r	.	8r	.	8ee\J	.
8r	.	8r	.	8r	.	4ff#\	.
8EE/L	.	8d\L	.	8g#/L	.	.	.
8EE/J	.	8d\J	.	8g#/J	.	8ee\	.
=103	=103	=103	=103	=103	=103	=102	=102
8AA\L	.	4c#\	.	4a/	.	8a\L	.
8A\	p	.	.	.	.	8cc#\	.
8A\J	.	8r	.	8r	.	8ee\J	.
8A\L	.	4.g\	p	4.b\	p	4ff#\	.
8A\	.	.	.	.	.	.	.
8A\J	.	.	.	.	.	8ee\	.
=104	=104	=104	=104	=104	=104	=103	=103
8A\L	.	4.f#\	.	4.a/	.	4ee\	.
8A\	.	.	.	.	.	.	.
8A\J	.	.	.	.	.	8dd\	.
8A\L	.	4.e\	.	4.g/	.	4dd\	.
8A\	.	.	.	.	.	.	.
8A\J	.	.	.	.	.	8cc#\	.
=105	=105	=105	=105	=105	=105	=104	=104
8A\L	<	4.d\	<	4.f#/	<	4cc#\	<
8AA\	<	.	.	.	.	.	.
8AA\J	.	.	.	.	.	8b\	<
8AA/L	.	4.c#\	<	4.e/	<	4b\	.
8AA/	.	.	.	.	.	.	.
8AA/J	.	.	.	.	.	8a/	.
=106	=106	=106	=106	=106	=106	=105	=105
8AA/L	.	4.B/	.	4.d/	.	4a/	.
8AA/	.	.	.	.	.	.	.
8AA/J	.	.	.	.	.	8g/	.
8AA/L	.	4.A/	.	4.c#/	.	4g/	.
8AA/	.	.	.	.	.	.	.
8AA/J	.	.	.	.	.	8f#/	.
=107	=107	=107	=107	=107	=107	=106	=106
8AA/L	.	4.G/	.	4.B/	.	4f#/	.
8AA/	.	.	.	.	.	.	.
8AA/J	.	.	.	.	.	8e/	.
8AA/L	.	4.F#/	.	4.A/	.	4e/	.
8AA/	.	.	.	.	.	.	.
8AA/J	.	.	.	.	.	8d#/	.
=108	=108	=108	=108	=108	=108	=107	=107
8AA/L	.	4.Fn/	.	4.G#/	.	4d#/	.
8AA/	.	.	.	.	.	.	.
8AA/J	.	.	.	.	.	8d/	.
8AA/L	.	4.E/	.	4.G/	.	4d/	.
8AA/	.	.	.	.	.	.	.
8AA/J	.	.	.	.	.	8c#/	.
=109	=109	=109	=109	=109	=109	=108	=108
[2.AA/	f	[2.E/	f	[2.G/	f	8c#/L	f
.	.	.	.	.	.	8e/	.
.	.	.	.	.	.	8d#/J	.
.	.	.	.	.	.	8e/L	.
.	.	.	.	.	.	8g/	.
.	.	.	.	.	.	8f#/J	.
=110	=110	=110	=110	=110	=110	=109	=109
2.AA/]	.	2.E/]	.	2.G/]	.	8g/L	.
.	.	.	.	.	.	8cc#/	.
.	.	.	.	.	.	8b#/J	.
.	.	.	.	.	.	8cc#\L	.
.	.	.	.	.	.	8ee\	.
.	.	.	.	.	.	8dd#\J	.
=111	=111	=111	=111	=111	=111	=110	=110
[2.AA#/	f	[2.E/	f	[2.G/ [2.g/	f	8ee\L	f
.	.	.	.	.	.	8gg\	.
.	.	.	.	.	.	8ff#\J	.
.	.	.	.	.	.	8gg\L	.
.	.	.	.	.	.	8ccc#\	.
.	.	.	.	.	.	8bb#\J	.
=112	=112	=112	=112	=112	=112	=111	=111
2.AA#/]	.	2.E/]	.	2.G/] 2.g/]	.	8ccc#\L	.
.	.	.	.	.	.	8eee\	.
.	.	.	.	.	.	8ddd#\J	.
.	.	.	.	.	.	8eee\L	.
.	.	.	.	.	.	8ggg\	.
.	.	.	.	.	.	8fff#\J	.
=113	=113	=113	=113	=113	=113	=112	=112
2.BB/	f	2.E/	f	2.G/ 2.g/	f	8ggg\L	f
.	.	.	.	.	.	8eee\	.
.	.	.	.	.	.	8ddd#\J	.
.	.	.	.	.	.	8eee\L	.
.	.	.	.	.	.	8ggg\	.
.	.	.	.	.	.	8fff#\J	.
=114	=114	=114	=114	=114	=114	=113	=113
2.Cn/	f	2.e\	f	2.B-/ 2.g/	f	8ggg\L	.
.	.	.	.	.	.	8eee\	.
.	.	.	.	.	.	8ddd#\J	.
.	.	.	.	.	.	8eee\L	.
.	.	.	.	.	.	8ggg\	.
.	.	.	.	.	.	8fff#\J	.
=115	=115	=115	=115	=115	=115	=114	=114
*>A1	*>A1	*>A1	*>A1	*>A1	*>A1	*>A1	*>A1
4C#/	f	4.e\	f	4A/ 4g/	f	4ggg\	f
8r	.	.	.	8r	.	8r	.
4r	.	4r	.	4r	.	8r	.
.	.	.	.	.	.	8gg\L	p
8r	.	8r	.	8r	.	8ff#\J	.
=116	=116	=116	=116	=116	=116	=115	=115
2.r	.	2.r	.	2.r	.	4gg\	.
.	.	.	.	.	.	8r	.
.	.	.	.	.	.	8r	.
.	.	.	.	.	.	8g/L	.
.	.	.	.	.	.	8f#/J	.
=117	=117	=117	=117	=117	=117	=116	=116
4r	.	4r	.	2.r	.	4g/	.
8r	.	8r	.	.	.	8r	.
8r	.	8r	.	.	.	4r	.
(8G\L	p	(8B/L	p	.	.	.	.
8A\J	.	8cn/J	.	.	.	8r	.
=118	=118	=118	=118	=118	=118	=117	=117
4G\)	.	4B/)	.	8r	.	2.r	.
.	.	.	.	8e/L	p	.	.
8r	.	8r	.	8d#/J	.	.	.
8r	.	8r	.	4e/	.	.	.
(8F#\L	.	(8A/L	.	.	.	.	.
8G\J	.	8B/J	.	8r	.	.	.
=119	=119	=119	=119	=119	=119	=118	=118
4F#\)	.	4A/)	.	8r	.	2.r	.
.	.	.	.	8d/L	.	.	.
8r	.	8r	.	8c#/J	.	.	.
8r	.	8r	.	4d/	.	.	.
(8E\L	.	(8G/L	.	.	.	.	.
8F#\J)	.	8A/J)	.	8r	.	.	.
=120	=120	=120	=120	=120	=120	=119	=119
4E\	.	4G/	.	8r	.	4r	.
.	.	.	.	8c#/L	.	.	.
8r	.	8r	.	8B#/J	.	8r	.
4r	.	4r	.	4c#/	.	8r	.
.	.	.	.	.	.	8dd\L	.
8r	.	8r	.	8r	.	8cc#\J	.
=121	=121	=121	=121	=121	=121	=120	=120
4D\	.	4F#/	.	2.r	.	8dd\L	.
.	.	.	.	.	.	8b\	.
8r	.	8r	.	.	.	8a#\J	.
4.r	.	4.r	.	.	.	8b/L	.
.	.	.	.	.	.	8g/	.
.	.	.	.	.	.	8f#/J	.
=122:|!	=122:|!	=122:|!	=122:|!	=122:|!	=122:|!	=121:|!	=121:|!
*>A2	*>A2	*>A2	*>A2	*>A2	*>A2	*>A2	*>A2
4C#/	f	4E/	f	4A/ 4g/	f	4ggg\	f
8r	.	8r	.	8r	.	8r	.
4r	.	4r	.	4r	.	8r	.
.	.	.	.	.	.	8gg\L	p
8r	.	8r	.	8r	.	8ff#\J	.
=123	=123	=123	=123	=123	=123	=122	=122
2.r	.	2.r	.	2.r	.	4gg\	.
.	.	.	.	.	.	8r	.
.	.	.	.	.	.	8r	.
.	.	.	.	.	.	8g/L	.
.	.	.	.	.	.	8f#/J	.
=124	=124	=124	=124	=124	=124	=123	=123
4r	.	4r	.	2.r	.	4g/	.
8r	.	8r	.	.	.	8r	.
8r	.	8r	.	.	.	4r	.
(8G\L	p	(8B/L	p	.	.	.	.
8A\J	.	8cn/J)	.	.	.	8r	.
=125	=125	=125	=125	=125	=125	=124	=124
4G\)	.	4B/	.	8r	.	2.r	.
.	.	.	.	8e/L	p	.	.
8r	.	8r	.	8d#/J	.	.	.
8r	.	8r	.	4e/	.	.	.
(8F#\L	.	(8A/L	.	.	.	.	.
8G\J)	.	8B/J	.	8r	.	.	.
=126	=126	=126	=126	=126	=126	=125	=125
4F#\	.	4A/)	.	8r	.	2.r	.
.	.	.	.	8d/L	.	.	.
8r	.	8r	.	8c#/J	.	.	.
8r	.	8r	.	4d/	.	.	.
(8E\L	.	(8G/L	.	.	.	.	.
8F#\J	.	8A/J)	.	8r	.	.	.
=127	=127	=127	=127	=127	=127	=126	=126
4E\)	.	4G/	.	8r	.	4r	.
.	.	.	.	8c#/L	.	.	.
8r	.	8r	.	8B#/J	.	8r	.
4r	.	4r	.	4c#/	.	8r	.
.	.	.	.	.	.	8ff#\L	p
8r	.	8r	.	8r	.	8ee#\J	.
=128	=128	=128	=128	=128	=128	=127	=127
2.r	.	8r	.	8r	.	4ff#\	.
.	.	(8a\L	.	8ccn\L	.	.	.
.	.	8b\J	.	8dd\J	.	8r	.
.	.	4a\)	.	4ccn\	.	8r	.
.	.	.	.	.	.	8ee\L	.
.	.	8r	.	8r	.	8dd#\J	.
=129	=129	=129	=129	=129	=129	=128	=128
2.r	.	8r	.	8r	.	4ee\	.
.	.	(8g\L	.	8b\L	.	.	.
.	.	8a\J	.	8cc#\J	.	8r	.
.	.	4g\)	.	4b\	.	8r	.
.	.	.	.	.	.	8dd#\L	.
.	.	8r	.	8r	.	8cc##\J	.
=130	=130	=130	=130	=130	=130	=129	=129
4r	.	8r	.	8r	.	4dd#\	.
.	.	(8f#\L	.	8a/L	.	.	.
8r	.	8g\J	.	8b/J	.	8r	.
8r	.	4f#\)	.	4a/	.	8r	.
(8cn\L	pp	.	.	.	.	8e/L	pp
8d\J)	.	8r	.	8r	.	8f#/J	.
=131	=131	=131	=131	=131	=131	=130	=130
4cn\	.	2.r	.	8r	.	4e/	.
.	.	.	.	8a/L	pp	.	.
8r	.	.	.	8g#/J	.	8r	.
8r	.	.	.	4a/	.	8r	.
(8B\L	.	.	.	.	.	8d/L	.
8cn\J)	.	.	.	8r	.	8e/J	.
=132	=132	=132	=132	=132	=132	=131	=131
4B\	.	2.r	.	8r	.	4d/	.
.	.	.	.	8g/L	.	.	.
8r	.	.	.	8f#/J	.	8r	.
8r	.	.	.	4g/	.	8r	.
(8A\L	.	.	.	.	.	8cn/L	.
8B\J	.	.	.	8r	.	8d/J	.
=133	=133	=133	=133	=133	=133	=132	=132
4A\)	.	2.r	.	8r	.	4cn/	.
.	.	.	.	8f#/L	.	.	.
8r	.	.	.	8e#/J	.	8r	.
4.r	.	.	.	4f#/	.	8r	.
.	.	.	.	.	.	8aa\L	.
.	.	.	.	8r	.	8gg#\J	.
=134	=134	=134	=134	=134	=134	=133	=133
2.r	.	8r	.	8r	.	4aa\	.
.	.	(8ccn\L	pp	8ee\L	.	.	.
.	.	8dd\J	.	8ff#\J	.	8r	.
.	.	4ccn\)	.	4ee\	.	8r	.
.	.	.	.	.	.	8gg\L	.
.	.	8r	.	8r	.	8ff#\J	.
=135	=135	=135	=135	=135	=135	=134	=134
2.r	.	8r	.	8r	.	4gg\	.
.	.	(8b\L	.	8dd\L	.	.	.
.	.	8ccn\J	.	8ee\J	.	8r	.
.	.	4b\)	.	4dd\	.	8r	.
.	.	.	.	.	.	8ff#\L	.
.	.	8r	.	8r	.	8ee#\J	.
=136	=136	=136	=136	=136	=136	=135	=135
2.r	.	8r	.	8r	.	4ff#\	.
.	.	(8a\L	.	8ccn\L	.	.	.
.	.	8b\J	.	8dd\J	.	8r	.
.	.	8a\L)	.	4ccn\	.	4r	.
.	.	(8G\	f	.	.	.	.
.	.	8F#\J	.	8r	.	8r	.
=137	=137	=137	=137	=137	=137	=136	=136
8r	.	4G/)	.	2.r	.	2.r	.
(8G\L	f	.	.	.	.	.	.
8F#\J	.	8r	.	.	.	.	.
8G\L)	.	[4.cn\	.	.	.	.	.
(8E\	.	.	.	.	.	.	.
8D#\J	.	.	.	.	.	.	.
=138	=138	=138	=138	=138	=138	=137	=137
8E\L)	.	2.c\]	.	2.r	.	2.r	.
8A\	.	.	.	.	.	.	.
8G\J	.	.	.	.	.	.	.
8F#\L	.	.	.	.	.	.	.
8E\	.	.	.	.	.	.	.
8D\J	.	.	.	.	.	.	.
=139	=139	=139	=139	=139	=139	=138	=138
4G\	.	8G\L	.	2.r	.	2.r	.
.	.	(8g\	.	.	.	.	.
8r	.	8f#\J	.	.	.	.	.
[4.cn\	.	8g\L)	.	.	.	.	.
.	.	8e\	.	.	.	.	.
.	.	8d#\J	.	.	.	.	.
=140	=140	=140	=140	=140	=140	=139	=139
2.c\]	.	8e\L	.	2.r	.	2.r	.
.	.	8a\	.	.	.	.	.
.	.	8g\J	.	.	.	.	.
.	.	8f#\L	.	.	.	.	.
.	.	8e\	.	.	.	.	.
.	.	8d\J	.	.	.	.	.
=141	=141	=141	=141	=141	=141	=140	=140
4B\	.	4g\	.	8r	.	4dd\	f
.	.	.	.	8dd\L	f	.	.
8r	.	8r	.	8cc#\J	.	8r	.
4.r	.	4.r	.	8dd\L	.	[4.gg\	.
.	.	.	.	8b\	.	.	.
.	.	.	.	8a#\J	.	.	.
=142	=142	=142	=142	=142	=142	=141	=141
2.r	.	2.r	.	8b\L	.	2.gg\]	.
.	.	.	.	8ee\	.	.	.
.	.	.	.	8dd\J	.	.	.
.	.	.	.	8cc#\L	.	.	.
.	.	.	.	8b\	.	.	.
.	.	.	.	8a\J	.	.	.
=143	=143	=143	=143	=143	=143	=142	=142
2.r	.	2.r	.	4dd\	.	8ff#\L	.
.	.	.	.	.	.	8ddd\	.
.	.	.	.	8r	.	8ccc#\J	.
.	.	.	.	[4.gg\	.	8ddd\L	.
.	.	.	.	.	.	8bb\	.
.	.	.	.	.	.	8aa#\J	.
=144	=144	=144	=144	=144	=144	=143	=143
2.r	.	2.r	.	2.gg\]	.	8bb\L	.
.	.	.	.	.	.	8eee\	.
.	.	.	.	.	.	8ddd\J	.
.	.	.	.	.	.	8ccc#\L	.
.	.	.	.	.	.	8bb\	.
.	.	.	.	.	.	8aa\J	.
=145	=145	=145	=145	=145	=145	=144	=144
[2.d\	p	4f#\	p	4ff#\	p	8ddd\L	p
.	.	.	.	.	.	8ff#\	.
.	.	8r	.	8r	.	8ee#\J	.
.	.	[4.b\	.	4r	.	8ff#\L	.
.	.	.	.	.	.	8ff#\	.
.	.	.	.	8r	.	8gg\J	.
=146	=146	=146	=146	=146	=146	=145	=145
2.d\]	.	2.b\_	.	2.r	.	8aa\L	.
.	.	.	.	.	.	8bb\	.
.	.	.	.	.	.	8ccc#\J	.
.	.	.	.	.	.	8ddd\L	.
.	.	.	.	.	.	8eee\	.
.	.	.	.	.	.	8fff#\J	.
=147	=147	=147	=147	=147	=147	=146	=146
[2.c#\	.	(4.b\]	.	8r	.	8ddd#\L	.
.	.	.	.	8ee\L	p	8eee\J	.
.	.	.	.	8dd#\J	.	8r	.
.	.	[4.a\)	.	8ee\L	.	4.r	.
.	.	.	.	8aa\	.	.	.
.	.	.	.	8gg#\J	.	.	.
=148	=148	=148	=148	=148	=148	=147	=147
2.c#\]	.	2.a\]	.	8ff#\L	.	2.r	.
.	.	.	.	8ee\	.	.	.
.	.	.	.	8dd\J	.	.	.
.	.	.	.	8cc#\L	.	.	.
.	.	.	.	8dd\	.	.	.
.	.	.	.	8b\J	.	.	.
=149	=149	=149	=149	=149	=149	=148	=148
[2.cn\	.	4e\	.	4a/	.	8r	.
.	.	.	.	.	.	8ee\L	.
.	.	8r	.	8r	.	8dd#\J	.
.	.	[4.a\	.	4r	.	8ee\L	.
.	.	.	.	.	.	8ee\	.
.	.	.	.	8r	.	8ff#\J	.
=150	=150	=150	=150	=150	=150	=149	=149
2.c\]	.	2.a\_	.	2.r	.	8gg\L	.
.	.	.	.	.	.	8aa\	.
.	.	.	.	.	.	8bb\J	.
.	.	.	.	.	.	8cccn\L	.
.	.	.	.	.	.	8ddd\	.
.	.	.	.	.	.	8eee\J	.
=151	=151	=151	=151	=151	=151	=150	=150
[2.B\	.	(4.a\]	.	8r	.	8ccc#\L	.
.	.	.	.	8dd\L	.	8ddd\J	.
.	.	.	.	8cc#\J	.	8r	.
.	.	[4.g\)	.	8dd\L	.	4r	.
.	.	.	.	8gg\	.	.	.
.	.	.	.	8ff#\J	.	8r	.
=152	=152	=152	=152	=152	=152	=151	=151
2.B\]	.	2.g\]	.	8ee\L	.	2.r	.
.	.	.	.	8dd\	.	.	.
.	.	.	.	8ccn\J	.	.	.
.	.	.	.	8b\L	.	.	.
.	.	.	.	8ccn\	.	.	.
.	.	.	.	8a\J	.	.	.
=153	=153	=153	=153	=153	=153	=152	=152
8G/L	.	2.r	.	4g/	.	4bb\	.
(8GG/	.	.	.	.	.	.	.
8FF#/J	.	.	.	8r	.	8r	.
8GG/L)	.	.	.	4r	.	[4.eee\	.
8GG/	.	.	.	.	.	.	.
8AA/J	.	.	.	8r	.	.	.
=154	=154	=154	=154	=154	=154	=153	=153
8BB/L	.	(2.G/	.	2.b\	.	2.eee\]	.
8Cn/	.	.	.	.	.	.	.
8D/J	.	.	.	.	.	.	.
8E\L	.	.	.	.	.	.	.
8F#\	.	.	.	.	.	.	.
8G\J	.	.	.	.	.	.	.
=155	=155	=155	=155	=155	=155	=154	=154
4F#\	.	8F#/L)	.	8a\L	.	4ddd#\	.
.	.	(8f#/	.	8aa\	.	.	.
8r	.	8e#/J	.	8gg#\J	.	8r	.
4r	.	8f#\L)	.	8aa\L	.	[4.aa\	.
.	.	8f#\	.	8aa\	.	.	.
8r	.	8e\J	.	8gg\J	.	.	.
=156	=156	=156	=156	=156	=156	=155	=155
4r	.	8d#\L	.	8ff#\L	.	2.aa\]	.
.	.	8d#\	.	8ff#\	.	.	.
8r	.	8c#\J	.	8ee\J	.	.	.
8BB/L	.	8B\L	.	8dd#\L	.	.	.
8BB/	.	8c#\	.	8ee\	.	.	.
8BB/J	.	8d#\J	.	8ff#\J	.	.	.
=157	=157	=157	=157	=157	=157	=156	=156
8E/L	.	4e\	.	4b\	.	4gg\	.
(8EE/	.	.	.	.	.	.	.
8DD#/J	.	8r	.	8r	.	8r	.
8EE/L)	.	4r	.	4r	.	[4.cccn\	.
8EE/	.	.	.	.	.	.	.
8DD#/J	.	8r	.	8r	.	.	.
=158	=158	=158	=158	=158	=158	=157	=157
8GG/L	.	(2.E/	.	2.g/	.	2.ccc\]	.
8AA/	.	.	.	.	.	.	.
8BB/J	.	.	.	.	.	.	.
8Cn\L	.	.	.	.	.	.	.
8D\	.	.	.	.	.	.	.
8E\J	.	.	.	.	.	.	.
=159	=159	=159	=159	=159	=159	=158	=158
4D\	.	8D/L)	.	8f#\L	.	4bb\	.
.	.	8d/	.	8ff#\	.	.	.
8r	.	8c#/J	.	8ee#\J	.	8r	.
4r	.	8d\L	.	8ff#\L	.	[4.ff#\	.
.	.	8d\	.	8ff#\	.	.	.
8r	.	8c#\J	.	8ee\J	.	.	.
=160	=160	=160	=160	=160	=160	=159	=159
2.r	.	8B/L	.	8dd\L	.	2.ff#\]	.
.	.	8B/	.	8dd\	.	.	.
.	.	8c#/J	.	8cc#\J	.	.	.
.	.	8d\L	.	8b\L	.	.	.
.	.	8d\	.	8b\	.	.	.
.	.	8d\J	.	8b\J	.	.	.
=161	=161	=161	=161	=161	=161	=160	=160
2.r	.	4c#\	.	4b\	.	8ee#\L	.
.	.	.	.	.	.	8bb\	.
.	.	8r	.	8r	.	8gg#\J	.
.	.	4r	.	[4.dd\	.	8ee#\L	.
.	.	.	.	.	.	8bb\	.
.	.	8r	.	.	.	8gg#\J	.
=162	=162	=162	=162	=162	=162	=161	=161
4B\	.	8C#/L	.	2.dd\]	.	8ee#\L	.
.	.	8C#/	.	.	.	8bb\	.
8r	.	8C#/J	.	.	.	8gg#\J	.
[4.d\	.	8C#/L	.	.	.	8ee#\L	.
.	.	8C#/	.	.	.	8bb\	.
.	.	8C#/J	.	.	.	8gg#\J	.
=163	=163	=163	=163	=163	=163	=162	=162
4.d\]	.	8C#/L	.	4b\	.	8ee#\L	.
.	.	8C#/	.	.	.	8bb\	.
.	.	8C#/J	.	8r	.	8gg#\J	.
4B\	.	8C#/L	.	[4.dd\	.	8ee#\L	.
.	.	8C#/	.	.	.	8bb\	.
8r	.	8C#/J	.	.	.	8gg#\J	.
=164	=164	=164	=164	=164	=164	=163	=163
(4.d\	.	8C#/L	.	4.dd\]	.	8ee#\L	.
.	.	8C#/	.	.	.	8bb\	.
.	.	8C#/J	.	.	.	8gg#\J	.
4c#\)	.	8C#/L	.	4cc#\	.	8ee#\L	.
.	.	8C#/	.	.	.	8gg#\	.
8r	.	8C#/J	.	8r	.	8bb\J	.
=165	=165	=165	=165	=165	=165	=164	=164
2.r	.	4F#/	.	4ee\	.	8aa#\L	.
.	.	.	.	.	.	8eee\	.
.	.	8r	.	8r	.	8ccc#\J	.
.	.	4.r	.	[4.gg\	.	8aa#\L	.
.	.	.	.	.	.	8eee\	.
.	.	.	.	.	.	8ccc#\J	.
=166	=166	=166	=166	=166	=166	=165	=165
4e\	.	8F#/L	.	2.gg\]	.	8aa#\L	.
.	.	8F#/	.	.	.	8eee\	.
8r	.	8F#/J	.	.	.	8ccc#\J	.
[4.g\	.	8F#/L	.	.	.	8aa#\L	.
.	.	8F#/	.	.	.	8eee\	.
.	.	8F#/J	.	.	.	8ccc#\J	.
=167	=167	=167	=167	=167	=167	=166	=166
4.g\]	.	8F#/L	.	4ee\	.	8aa#\L	.
.	.	8F#/	.	.	.	8eee\	.
.	.	8F#/J	.	8r	.	8ccc#\J	.
4e\	.	8F#/L	.	[4.gg\	.	8aa#\L	.
.	.	8F#/	.	.	.	8eee\	.
8r	.	8F#/J	.	.	.	8ccc#\J	.
=168	=168	=168	=168	=168	=168	=167	=167
(4.g\	.	8F#/L	.	4.gg\]	.	8aa#\L	.
.	.	8F#/	.	.	.	8eee\	.
.	.	8F#/J	.	.	.	8ccc#\J	.
4f#\)	.	8F#/L	.	4ff#\	.	8aa#\L	.
.	.	8F#/	.	.	.	8ccc#\	.
8r	.	8F#/J	.	8r	.	8eee\J	.
=169	=169	=169	=169	=169	=169	=168	=168
4BB/	.	4a\	.	2.r	.	8ddd#\L	.
.	.	.	.	.	.	8aaa\	.
8r	.	8r	.	.	.	8fff#\J	.
4r	.	[4.ccn\	.	.	.	8ddd#\L	.
.	.	.	.	.	.	8aaa\	.
8r	.	.	.	.	.	8fff#\J	.
=170	=170	=170	=170	=170	=170	=169	=169
8BB/L	.	2.cc\]	.	4A/	.	8ddd#\L	.
8BB/	.	.	.	.	.	8aaa\	.
8BB/J	.	.	.	8r	.	8fff#\J	.
8BB/L	.	.	.	[4.cn/	.	8ddd#\L	.
8BB/	.	.	.	.	.	8aaa\	.
8BB/J	.	.	.	.	.	8fff#\J	.
=171	=171	=171	=171	=171	=171	=170	=170
8BB/L	.	4a\	.	4.c/]	.	8ddd#\L	.
8BB/	.	.	.	.	.	8aaa\	.
8BB/J	.	8r	.	.	.	8fff#\J	.
8BB/L	.	[4.ccn\	.	4A/	.	8ddd#\L	.
8BB/	.	.	.	.	.	8aaa\	.
8BB/J	.	.	.	8r	.	8fff#\J	.
=172	=172	=172	=172	=172	=172	=171	=171
8BB/L	.	4.cc\]	.	4.cn/	.	8ddd#\L	.
8BB/	.	.	.	.	.	8aaa\	.
8BB/J	.	.	.	.	.	8fff#\J	.
8BB/L	.	4b\	.	4B/	.	8ddd#\L	.
8BB/	.	.	.	.	.	8fff#\	.
8BB/J	.	8r	.	8r	.	8aaa\J	.
=173	=173	=173	=173	=173	=173	=172	=172
4E\	.	4B/	.	4g/	.	8ggg\L	.
.	.	.	.	.	.	8bbb\	.
8r	.	8r	.	8r	.	8bbb\J	.
[4.G\	ff	[4.e#\	ff	[4.d/ [4.b/	ff	8bbb\L	ff
.	.	.	.	.	.	8bbb\	.
.	.	.	.	.	.	8bbb\J	.
=174	=174	=174	=174	=174	=174	=173	=173
2.G\]	.	(2.e#\]	.	2.d/_ 2.b/_	.	8bbb\L	.
.	.	.	.	.	.	8bbb\	.
.	.	.	.	.	.	8bbb\J	.
.	.	.	.	.	.	8bbb\L	.
.	.	.	.	.	.	8bbb\	.
.	.	.	.	.	.	8bbb\J	.
=175	=175	=175	=175	=175	=175	=174	=174
8F#\L	p	8f#\L)	p	8d/L] 8b/]	p	2.f#/	p
8F#\	.	8B\	.	8d/	.	.	.
8F#\J	.	8B\J	.	8d/J	.	.	.
8F#\L	.	8B/L	.	8d/L	.	.	.
8F#\	.	8B/	.	8d/	.	.	.
8F#\J	.	8B/J	.	8d/J	.	.	.
=176	=176	=176	=176	=176	=176	=175	=175
8F#\L	.	8A#/L	.	8e/L	.	2.cc#\	.
8F#\	.	8A#/	.	8e/	.	.	.
8F#\J	.	8A#/J	.	8e/J	.	.	.
8F#\L	.	8A#/L	.	8e/L	.	.	.
8F#\	.	8A#/	.	8e/	.	.	.
8F#\J	.	8A#/J	.	8e/J	.	.	.
=177	=177	=177	=177	=177	=177	=176	=176
4A\	.	4B/	.	4d/	.	8b\L	.
.	.	.	.	.	.	8ccn\	.
8r	.	8r	.	8r	.	8cc#\J	.
[4.GG/	ff	[4.B/	ff	[4.d/ [4.dd/	ff	8dd\L	ff
.	.	.	.	.	.	8ee\	.
.	.	.	.	.	.	8ee#\J	.
=178	=178	=178	=178	=178	=178	=177	=177
2.GG/]	.	2.B/]	.	2.d/] 2.dd/]	.	8ff#\L	.
.	.	.	.	.	.	8gg\	.
.	.	.	.	.	.	8gg#\J	.
.	.	.	.	.	.	8aa\L	.
.	.	.	.	.	.	8aa#\	.
.	.	.	.	.	.	8bb\J	.
=179	=179	=179	=179	=179	=179	=178	=178
8FF#/L	.	8B/L	.	8d/L	.	2.f#/	.
8F#/	.	8B/	.	8d/	.	.	.
8F#/J	.	8B/J	.	8d/J	.	.	.
8F#\L	.	8B/L	.	8d/L	.	.	.
8F#\	.	8B/	.	8d/	.	.	.
8F#\J	.	8B/J	.	8d/J	.	.	.
=180	=180	=180	=180	=180	=180	=179	=179
8F#\L	.	8A#/L	.	8e/L	.	2.cc#\	.
8F#\	.	8A#/	.	8e/	.	.	.
8F#\J	.	8A#/J	.	8e/J	.	.	.
8F#\L	.	8A#/L	.	8e/L	.	.	.
8F#\	.	8A#/	.	8e/	.	.	.
8F#\J	.	8A#/J	.	8e/J	.	.	.
=181	=181	=181	=181	=181	=181	=180	=180
4BB/	pp	4B/	.	4d/	.	4b\	.
8FF#/	.	8r	.	8r	.	8r	.
(4FF#/	.	[4.F#/	pp	8b\L	pp	4.r	.
.	.	.	.	8cc#\	.	.	.
8BB/)	.	.	.	8dd\J	.	.	.
=182	=182	=182	=182	=182	=182	=181	=181
4AA#/	.	2.F#/_	.	8ee\L	.	2.r	.
.	.	.	.	8dd\	.	.	.
8FF#/	.	.	.	8cc#\J	.	.	.
(4FF#/	.	.	.	8cc#\L	.	.	.
.	.	.	.	8dd\	.	.	.
8AA#/)	.	.	.	8ee\J	.	.	.
=183	=183	=183	=183	=183	=183	=182	=182
4BB/	.	2.F#/_	.	8dd\L	.	4r	.
.	.	.	.	8cc#\	.	.	.
8FF#/	.	.	.	8b\J	.	8r	.
(4FF#/	.	.	.	8dd\L	.	8bb\L	pp
.	.	.	.	8cc#\	.	8ccc#\	.
8BB/)	.	.	.	8b\J	.	8ddd\J	.
=184	=184	=184	=184	=184	=184	=183	=183
4AA#/	.	2.F#/_	.	4f#/	.	8eee\L	.
.	.	.	.	.	.	8ddd\	.
8FF#/	.	.	.	8r	.	8ccc#\J	.
(4FF#/	.	.	.	8ee\L	.	8ccc#\L	.
.	.	.	.	8dd\	.	8ddd\	.
8AA#/)	.	.	.	8cc#\J	.	8eee\J	.
=185	=185	=185	=185	=185	=185	=184	=184
4BB/	.	4F#/]	.	4f#/	.	8ddd\L	.
.	.	.	.	.	.	8ccc#\	.
8r	.	8r	.	8r	.	8bb\J	.
4r	.	4r	.	8dd\L	.	4r	.
.	.	.	.	8cc#\	.	.	.
8r	.	8r	.	8b\J	.	8r	.
=186	=186	=186	=186	=186	=186	=185	=185
4r	.	8d\L	.	8b/L	.	4r	.
.	.	8cn\	.	8a/	.	.	.
8r	.	8B\J	.	8g#/J	.	8r	.
8EE/L	.	8E/L	.	8G#/L	.	8dd\L	.
8FF#/	.	8E/	.	8A/	.	8ccn\	.
8GG#/J	.	8E/J	.	8B/J	.	8b\J	.
=187	=187	=187	=187	=187	=187	=186	=186
4AA/	pp	[2.E/	pp	4cn/	.	4a/	.
8EE/	.	.	.	8r	.	8r	.
(4EE/	.	.	.	8a\L	.	4r	.
.	.	.	.	8b\	.	.	.
8AA/)	.	.	.	8ccn\J	.	8r	.
=188	=188	=188	=188	=188	=188	=187	=187
4GG#/	.	2.E/_	.	8dd\L	.	2.r	.
.	.	.	.	8ccn\	.	.	.
8EE/	.	.	.	8b\J	.	.	.
(4EE/	.	.	.	8b\L	.	.	.
.	.	.	.	8ccn\	.	.	.
8GG#/)	.	.	.	8dd\J	.	.	.
=189	=189	=189	=189	=189	=189	=188	=188
4AA/	.	2.E/_	.	8ccn\L	.	4r	.
.	.	.	.	8b\	.	.	.
8EE/	.	.	.	8a\J	.	8r	.
(4EE/	.	.	.	8ccn\L	.	8aa\L	pp
.	.	.	.	8b\	.	8bb\	.
8AA/)	.	.	.	8a\J	.	8cccn\J	.
=190	=190	=190	=190	=190	=190	=189	=189
4GG#/	.	2.E/_	.	4e/	.	8ddd\L	.
.	.	.	.	.	.	8cccn\	.
8EE/	.	.	.	8r	.	8bb\J	.
(4EE/	.	.	.	8dd\L	.	8bb\L	.
.	.	.	.	8ccn\	.	8cccn\	.
8GG#/)	.	.	.	8b\J	.	8ddd\J	.
=191	=191	=191	=191	=191	=191	=190	=190
4AA/	.	4E/]	.	4e/	.	8cccn\L	.
.	.	.	.	.	.	8bb\	.
8r	.	8r	.	8r	.	8aa\J	.
4r	.	4r	.	8ccn\L	.	4r	.
.	.	.	.	8b\	.	.	.
8r	.	8r	.	8a\J	.	8r	.
=192	=192	=192	=192	=192	=192	=191	=191
4r	.	8c#/L	.	8a/L	.	4r	.
.	.	8B/	.	8g/	.	.	.
8r	.	8A/J	.	8f#/J	.	8r	.
8DD/L	.	8F#/L	.	8d/L	.	8ccn\L	.
8EE/	.	8G/	.	8d/	.	8b\	.
8FF#/J	.	8A/J	.	8d/J	.	8a\J	.
=193	=193	=193	=193	=193	=193	=192	=192
4GG/	pp	4B/	.	4B/	.	4g/	.
8DD/	.	8r	.	8r	.	8r	.
(4DD/	.	[4.D/	pp	8g/L	pp	4r	.
.	.	.	.	8a/	.	.	.
8GG/)	.	.	.	8b/J	.	8r	.
=194	=194	=194	=194	=194	=194	=193	=193
4FF#/	.	2.D/_	.	8ccn\L	.	2.r	.
.	.	.	.	8b\	.	.	.
8DD/	.	.	.	8a\J	.	.	.
(4DD/	.	.	.	8a\L	.	.	.
.	.	.	.	8b\	.	.	.
8FF#/)	.	.	.	8ccn\J	.	.	.
=195	=195	=195	=195	=195	=195	=194	=194
4GG/	.	2.D/_	.	8b/L	.	4r	.
.	.	.	.	8a/	.	.	.
8DD/	.	.	.	8g/J	.	8r	.
(4DD/	.	.	.	8b/L	.	8gg\L	p
.	.	.	.	8a/	.	8aa\	.
8GG/)	.	.	.	8g/J	.	8bb\J	.
=196	=196	=196	=196	=196	=196	=195	=195
4FF#/	.	2.D/_	.	4d/	.	8cccn\L	.
.	.	.	.	.	.	8bb\	.
8DD/	.	.	.	8r	.	8aa\J	.
(4DD/	.	.	.	8ccn\L	.	8aa\L	.
.	.	.	.	8b\	.	8bb\	.
8FF#/)	.	.	.	8a\J	.	8cccn\J	.
=197	=197	=197	=197	=197	=197	=196	=196
4GG/	.	4.D/]	.	4d/	.	4bb\	.
8G\	.	.	.	8r	.	8r	.
4GG/	.	[4.G/	.	4r	.	4r	.
8GG/	.	.	.	8r	.	8r	.
=198	=198	=198	=198	=198	=198	=197	=197
2.FF#/	pp	2.G/_	.	8r	.	8r	.
.	.	.	.	8r	.	8r	.
.	.	.	.	8b\	pp	8gg\	pp
.	.	.	.	4g/	.	4b\	.
.	.	.	.	8g/	.	8b\	.
=199	=199	=199	=199	=199	=199	=198	=198
4EE/	.	2.G/_	.	[2.g/	.	[2.b\	.
8E\	.	.	.	.	.	.	.
4EE/	.	.	.	.	.	.	.
8EE/	.	.	.	.	.	.	.
=200	=200	=200	=200	=200	=200	=199	=199
2.DD/	.	2.G/]	.	4g/]	.	4b\]	.
.	.	.	.	8b\	.	8gg\	.
.	.	.	.	4g/	.	4b\	.
.	.	.	.	8g/	.	8b\	.
=201	=201	=201	=201	=201	=201	=200	=200
4CC#/	.	[2.E/	.	[2.g/	.	[2.b-\	.
8C#/	.	.	.	.	.	.	.
4CC#/	.	.	.	.	.	.	.
8CC#/	.	.	.	.	.	.	.
=202	=202	=202	=202	=202	=202	=201	=201
2.CC#/	.	2.E/_	.	4g/]	.	4b-\]	.
.	.	.	.	8b-\	.	8gg\	.
.	.	.	.	4g/	.	4b-\	.
.	.	.	.	8g/	.	8b-\	.
=203	=203	=203	=203	=203	=203	=202	=202
4CCn/	.	2.E/_	.	[2.g/	.	[2.b-\	.
8cn\	.	.	.	.	.	.	.
4Cn/	.	.	.	.	.	.	.
8Cn/	.	.	.	.	.	.	.
=204	=204	=204	=204	=204	=204	=203	=203
2.Cn/	.	2.E/_	.	4g/]	.	4b-\]	.
.	.	.	.	8b-\	.	8gg\	.
.	.	.	.	4g/	.	4b-\	.
.	.	.	.	8g/	.	8b-\	.
=205	=205	=205	=205	=205	=205	=204	=204
4BB/	.	2.E/_	.	[2.g/	.	[2.b\	.
8B\	.	.	.	.	.	.	.
4BB/	.	.	.	.	.	.	.
8BB/	.	.	.	.	.	.	.
=206	=206	=206	=206	=206	=206	=205	=205
2.BB/	.	2.E/_	.	4g/]	.	4b\]	.
.	.	.	.	8b\	.	8gg\	.
.	.	.	.	4g/	.	4b\	.
.	.	.	.	8g/	.	8b\	.
=207	=207	=207	=207	=207	=207	=206	=206
4BB-/	.	2.E/_	.	[2.g/	.	[2.cc#\	.
8B-\	.	.	.	.	.	.	.
4BB-/	.	.	.	.	.	.	.
8BB-/	.	.	.	.	.	.	.
=208	=208	=208	=208	=208	=208	=207	=207
2.BB-/	.	4E/]	.	4g/]	.	4cc#\]	.
.	.	[8e\	.	[8g/	.	[8cc#\	.
.	.	4e\]	.	4g/]	.	4cc#\]	.
.	.	8e\	.	8g/	.	8cc#\	.
=209	=209	=209	=209	=209	=209	=208	=208
4AA/	.	[2.e\	.	[2.g/	.	[2.cc#\	.
8A\	.	.	.	.	.	.	.
4AA/	.	.	.	.	.	.	.
8AA/	.	.	.	.	.	.	.
=210	=210	=210	=210	=210	=210	=209	=209
[2.AA/	.	4e\]	.	4g/]	.	4cc#\]	.
.	.	[8e\	.	[8g/	.	[8cc#\	.
.	.	4e\]	.	4g/]	.	4cc#\_	.
.	.	8e\	.	8g/	.	8cc#\]	.
=211	=211	=211	=211	=211	=211	=210	=210
4AA/]	.	[2.d\	.	[2.fn/	.	[2.dd\	.
8A\	.	.	.	.	.	.	.
4AA/	.	.	.	.	.	.	.
8AA/	.	.	.	.	.	.	.
=212	=212	=212	=212	=212	=212	=211	=211
[2.AA/	.	4d\]	.	4f/]	.	4dd\]	.
.	.	[8d\	.	[8fn/	.	[8dd\	.
.	.	4d\]	.	4fn/]	.	4dd\]	.
.	.	(8d\	.	8fn/	.	8dd\	.
=213	=213	=213	=213	=213	=213	=212	=212
4AA/]	.	[2.A/)	.	[2.d/	.	[2.e/	.
8A\	.	.	.	.	.	.	.
4AA/	.	.	.	.	.	.	.
8AA/	.	.	.	.	.	.	.
=214	=214	=214	=214	=214	=214	=213	=213
[2.AA/	.	4A/]	.	4d/]	.	4e/]	.
.	.	[8A/	.	[8d/	.	[8e/	.
.	.	4A/]	.	4d/]	.	4e/]	.
.	.	8A/	.	8d/	.	8e/	.
=215	=215	=215	=215	=215	=215	=214	=214
4AA/]	.	[2.G/	pp	[2.c#/	pp	[2.e/	pp
8A\	.	.	.	.	.	.	.
4AA/	.	.	.	.	.	.	.
8AA/	.	.	.	.	.	.	.
=216	=216	=216	=216	=216	=216	=215	=215
[2.AA/	pp	4G/]	.	4c#/]	.	4e/]	.
.	.	[8G/	.	[8c#/	.	[8e/	.
.	.	4G/]	.	4c#/]	.	4e/]	.
.	.	(8G/	.	8c#/	.	8e/	.
=217	=217	=217	=217	=217	=217	=216	=216
8AA/L]	.	8G/L)	.	8c#/L	.	4e/	.
(8AA/	ff	(8A/	ff	8a/	ff	.	.
8GG#/J	.	8G#/J	.	&(8g#/J&)	.	8r	.
8AA/L)	.	8A/L)	.	8a/L	.	4r	.
(8AA/	.	(8A/	.	8a/	.	.	.
8GG#/J	.	8G#/J	.	8g#/J	.	8r	.
=218	=218	=218	=218	=218	=218	=217	=217
8AA/L)	.	8A/L)	.	8a/L	.	4r	.
8BB/	.	8B/	.	8b/	.	.	.
8AA/J	.	8A/J	.	8a/J	.	8r	.
8GG/L	.	8G/L	.	8g/L	.	8r	.
8FF#/	.	8F#/	.	8e/	.	8dd\L	ff
8EE/J	.	8E/J	.	8d/J	.	8cc#\J	.
=219	=219	=219	=219	=219	=219	=218	=218
4DD/	f	4D/	f	4d/	.	8dd\L	f
.	.	.	.	.	.	8b\	.
8r	p	8r	p	8r	p	8a#\J	.
4.r	.	4r	.	4r	.	8b/L	.
.	.	.	.	.	.	8g/	.
.	.	8r	.	8r	.	8f#/J	.
=220	=220	=220	=220	=220	=220	=219	=219
2.r	.	2.r	.	2.r	.	8g/L	.
.	.	.	.	.	.	8e/	.
.	.	.	.	.	.	8d#/J	.
.	.	.	.	.	.	8e/L	.
.	.	.	.	.	.	8f#/	.
.	.	.	.	.	.	8g/J	.
=221	=221	=221	=221	=221	=221	=220	=220
2.r	.	2.r	.	2.r	.	8a\L	.
.	.	.	.	.	.	8b\	.
.	.	.	.	.	.	8cc#\J	.
.	.	.	.	.	.	8dd\L	.
.	.	.	.	.	.	8ee\	.
.	.	.	.	.	.	8ff#\J	.
=222	=222	=222	=222	=222	=222	=221	=221
2.r	.	2.r	.	4r	.	4gg\	.
.	.	.	.	8r	.	8r	.
.	.	.	.	8r	.	8r	.
.	.	.	.	8dd\L	p	8ff#\L	p
.	.	.	.	8cc#\J	.	8ee#\J	.
=223	=223	=223	=223	=223	=223	=222	=222
2.r	.	2.r	.	8dd\L	.	8ff#\L	.
.	.	.	.	8b\	.	8dd\	.
.	.	.	.	8a#\J	.	8cc#\J	.
.	.	.	.	8b/L	.	8dd\L	.
.	.	.	.	8g/	.	8b\	.
.	.	.	.	8f#/J	.	8a#\J	.
=224	=224	=224	=224	=224	=224	=223	=223
2.r	.	2.r	.	8g/L	.	8b/L	.
.	.	.	.	8e/	.	8g/	.
.	.	.	.	8d#/J	.	8f#/J	.
.	.	.	.	8e/L	.	8g/L	.
.	.	.	.	8f#/	.	8a/	.
.	.	.	.	8g/J	.	8b/J	.
=225	=225	=225	=225	=225	=225	=224	=224
2.r	.	2.r	.	8a\L	.	8cc#\L	.
.	.	.	.	8b\	.	8dd\	.
.	.	.	.	8cc#\J	.	8ee\J	.
.	.	.	.	8dd\L	.	8ff#\L	.
.	.	.	.	8ee\	.	8gg\	.
.	.	.	.	8ff#\J	.	8aa\J	.
=226	=226	=226	=226	=226	=226	=225	=225
2.r	.	2.r	.	4gg\	.	4bb\	.
.	.	.	.	8r	.	8r	.
.	.	.	.	8r	.	8r	.
.	.	.	.	8ff#\L	.	8aa\L	.
.	.	.	.	8ee#\J	.	8gg#\J	.
=227	=227	=227	=227	=227	=227	=226	=226
4r	.	4r	.	8ff#\L	.	8aa\L	.
.	.	.	.	8gg\	.	8bb\	.
8r	.	8r	.	8aa\J	.	8cccn\J	.
[4.d#\	.	[4.f#\	.	4aa\	.	4cccn\	.
.	.	.	.	8aa\	.	8cccn\	.
=228	=228	=228	=228	=228	=228	=227	=227
(4.d#\]	<	(4.f#\]	<	4.aa\	.	4.cccn\	.
4e\)	.	4g\)	>	8gg\	.	8bb\	.
.	.	.	.	8aa\L	.	8cccn\L	.
8r	.	8r	.	8gg#\J	.	8bb\J	.
=229	=229	=229	=229	=229	=229	=228	=228
4r	.	4r	.	8aa\L	.	8cccn\L	.
.	.	.	.	8bb\	.	8ddd\	.
8r	.	8r	.	8cccn\J	.	8eee\J	.
(4.e\	.	(4.g\	.	4cccn\	.	4eee\	.
.	.	.	.	8cccn\	.	8eee\	.
=230	=230	=230	=230	=230	=230	=229	=229
4.f#\	<	4.a\	<	4.cccn\	.	4.eee\	.
4g\)	.	4b\)	>	8bb\	.	8ddd\	.
.	.	.	.	8gg\L	.	8eee\L	.
8r	.	8r	.	8ff#\J	.	8ddd#\J	.
=231	=231	=231	=231	=231	=231	=230	=230
4r	.	4r	.	8gg\L	<	8eee\L	<
.	.	.	.	8aa\	<	8fff#\	<
8r	.	8r	.	8bb\J	.	8ggg\J	.
(4.B\	<	(4.d\	<	4bb\	.	4ggg\	.
.	.	.	.	8bb\	.	8ggg\	.
=232	=232	=232	=232	=232	=232	=231	=231
(4.c#\)	<	(4.e\)	<	4.bb-\	.	4.ggg\	.
4d\)	.	4f#\)	.	4aa\	.	4fff#\	.
8D\	.	8d\	.	[8aa\	.	[8fff#\	.
=233	=233	=233	=233	=233	=233	=232	=232
4G\	.	8B\L	.	4aa\]	.	4fff#\]	.
.	.	8b\	.	.	.	.	.
8E\	.	8b\J	.	[8gg\	.	[8eee\	.
4A\	.	8b\L	.	4gg\]	.	4eee\]	.
.	.	8a\	.	.	.	.	.
8AA/	.	8g\J	.	[8ee\	.	[8ccc#\	.
=234	=234	=234	=234	=234	=234	=233	=233
[4.D\	.	(4.g\	.	4.ee\]	.	4.ccc#\]	.
8D\L]	.	8f#/L)	.	4ff#\	.	4ddd\	.
(8F#\	.	(8A/	.	.	.	.	.
8E#\J)	.	8G#/J)	.	8r	.	8r	.
=235	=235	=235	=235	=235	=235	=234	=234
(8F#\L	.	(8A/L	.	2.r	.	2.r	.
8G\)	.	8B/)	.	.	.	.	.
8A\J	.	8cn/J	.	.	.	.	.
8A\L	.	8cn\L	.	.	.	.	.
8A\	.	8cn\	.	.	.	.	.
8A\J	.	8cn\J	.	.	.	.	.
=236	=236	=236	=236	=236	=236	=235	=235
(4.A\	.	(4.cn\	.	4.d#/	.	4.dd#\	.
8G\L)	.	8B/L)	.	4e/	.	4ee\	.
(8A\	.	(8cn/	.	.	.	.	.
8G#\J)	.	8B/J)	.	8r	.	8r	.
=237	=237	=237	=237	=237	=237	=236	=236
(8A\L	.	(8cn\L	.	2.r	.	2.r	.
8B\)	.	8d\)	.	.	.	.	.
8cn\J	.	8e\J	.	.	.	.	.
8cn\L	.	8e\L	.	.	.	.	.
8cn\	.	8e\	.	.	.	.	.
8cn\J	.	8e\J	.	.	.	.	.
=238	=238	=238	=238	=238	=238	=237	=237
(4.cn\	.	(4.e\	.	4.f#/	.	4.ff#\	.
4B\)	.	4d\)	.	8g\L	.	8gg\L	.
.	.	.	.	8ee\	.	8gg\	.
8r	.	8r	.	8dd#\J	.	8ff#\J	.
=239	=239	=239	=239	=239	=239	=238	=238
2.r	.	2.r	.	8ee\L	.	8gg\L	.
.	.	.	.	8ff#\	.	8aa\	.
.	.	.	.	8gg\J	.	8bb\J	.
.	.	.	.	8gg\L	.	8bb\L	.
.	.	.	.	8gg\	.	8bb\	.
.	.	.	.	8gg\J	.	8bb\J	.
=240	=240	=240	=240	=240	=240	=239	=239
(4.A\	.	(4.c#\	.	4.gg\	.	4.bb\	.
4g\)	.	4a\)	.	4cc#\	.	4ee\	.
8r	.	8r	.	8r	.	8r	.
=241	=241	=241	=241	=241	=241	=240	=240
(8A\L	.	(8c#\L	.	8gg\L	.	8bb\L	.
8g\J)	.	8a\J)	.	8cc#\J	.	8ee\J	.
8r	.	8r	.	8r	.	8r	.
(8A\L	.	(8c#\L	.	8gg\L	.	8bb\L	.
8g\J)	.	8a\J)	.	8cc#\J	.	8ee\J	.
8r	.	8r	.	8r	.	8r	.
=242	=242	=242	=242	=242	=242	=241	=241
(8A\	.	(8c#\	.	8gg\	.	8bb\	.
[4g\)	.	[4a\)	.	[4cc#\	.	[4ee\	.
4g\]	.	4a\]	.	4cc#\]	.	4ee\]	.
8f#\	.	8a\	.	[8dd#\	.	[8ff#\	.
=243	=243	=243	=243	=243	=243	=242	=242
4G\	.	4b\	.	4dd#\]	.	4ff#\]	.
8E\	.	8B/	.	[8ee\	.	[8gg\	.
4A\	.	4A/	.	4ee\]	.	4gg\]	.
8AA/	.	8G/	.	8cc#\	.	8ee\	.
=244	=244	=244	=244	=244	=244	=243	=243
4D\	.	4F#/	.	8dd/L	.	4dd\	.
.	.	.	.	8A/	p	.	.
8r	.	8r	.	8A/J	.	8r	.
4F#\	p	4r	.	8d/L	.	4aa\	p
.	.	.	.	8A/	.	.	.
8r	.	8r	.	8A/J	.	8ddd\	.
=245	=245	=245	=245	=245	=245	=244	=244
4G\	.	2.r	.	8e/L	.	8ddd\L	.
.	.	.	.	8A/	.	8ccc#\	.
8r	.	.	.	8A/J	.	8bb\J	.
4C#/	.	.	.	8e/L	.	8bb\L	.
.	.	.	.	8A/	.	8aa\	.
8r	.	.	.	8A/J	.	8gg\J	.
=246	=246	=246	=246	=246	=246	=245	=245
4D\	.	4r	.	8f#/L	.	8gg\L	.
.	.	.	.	8A/	.	8ff#\	.
8r	.	8r	.	8A/J	.	8ee\J	.
4BB/	.	8B\L	.	8d/L	.	8ee\L	.
.	.	8d\	.	8f#/	.	8dd\	.
8r	.	8d\J	.	8f#/J	.	8cc#\J	.
=247	=247	=247	=247	=247	=247	=246	=246
4GG/	.	8B\L	.	8d/L	.	8cc#\L	.
.	.	8d\	.	8e/	.	8b\	.
8r	.	8d\J	.	8e/J	.	8ee\J	.
4AA/	.	8c#\L	.	8e/L	.	8ee\L	.
.	.	8e\	.	8g/	.	8cc#\	.
8r	.	8e\J	.	8g/J	.	8a\J	.
=248	=248	=248	=248	=248	=248	=247	=247
4DD/	.	4d\	.	4f#/	.	4dd\	.
8r	.	8r	.	8r	.	8r	.
4A\	p	4F#/	p	4r	.	4r	.
8d\	<	8r	.	8r	.	8r	.
=249	=249	=249	=249	=249	=249	=248	=248
(8d\L	.	4G/	<	4r	.	2.r	.
8c#\)	<	.	.	.	.	.	.
8B\J	.	8r	<	8r	.	.	.
(8B\L	.	4C#/	.	4e/	<	.	.
8A\)	.	.	.	.	.	.	.
8G\J	.	8r	.	8a/	<	.	.
=250	=250	=250	=250	=250	=250	=249	=249
(8F#\L	.	4D/	.	8a/L	.	2.r	.
8E\)	.	.	.	8g/	.	.	.
8D\J	.	8r	.	8f#/J	.	.	.
(8D/L	.	4a\	.	8f#/L	.	.	.
8C#/)	.	.	.	8e/	.	.	.
8BB/J	.	8dd\	.	8d/J	.	.	.
=251	=251	=251	=251	=251	=251	=250	=250
(8BB/L	.	(8dd\L	.	8d/L	.	4r	.
8AA/)	.	8cc#\)	.	8c#/	.	.	.
8GG/J	.	8b\J	.	8B/J	.	8r	.
(8GG/L	f	(8b\L	f	8B/L	f	4ee\	f
8FF#/)	.	8a\)	.	8A/	.	.	.
8EE/J	.	8g\J	.	8G/J	.	8aa\	.
=252	=252	=252	=252	=252	=252	=251	=251
8DD/L	.	8f#\L	.	8A/L	.	8aa\L	.
8EE/	.	8g\	.	8A/	.	8gg\	.
8FF#/J	.	8a\J	.	8A/J	.	8ff#\J	.
8GG/L	.	8b\L	.	8B/L	.	8ff#\L	.
8GG/	.	8B\	.	8e/	.	8ee\	.
8GG#/J	.	8B\J	.	8e/J	.	8dd\J	.
=253	=253	=253	=253	=253	=253	=252	=252
8AA/L	.	4A/	.	4d/	.	4cc#\	.
(8AA/	.	.	.	.	.	.	.
8GG#/J	.	8r	.	8r	.	8r	.
8AA/L)	p	(4.c#\	p	4.g/	p	4.bb\	p
8AA/	.	.	.	.	.	.	.
8AA/J	.	.	.	.	.	.	.
=254	=254	=254	=254	=254	=254	=253	=253
8AA/L	.	4.d\	.	4.f#/	.	4.aa\	.
8AA/	.	.	.	.	.	.	.
8AA/J	.	.	.	.	.	.	.
8AA/L	.	4.e\	.	4.cc#\	.	4.gg\	.
8AA/	.	.	.	.	.	.	.
8AA/J	.	.	.	.	.	.	.
=255	=255	=255	=255	=255	=255	=254	=254
8AA/L	.	4.f#\	.	4.dd\	.	4.ff#\	.
8AA/	.	.	.	.	.	.	.
8AA/J	.	.	.	.	.	.	.
8AA/L	.	4.g\	.	4.cc#\	.	4.ee\	.
8AA/	.	.	.	.	.	.	.
8AA/J	.	.	.	.	.	.	.
=256	=256	=256	=256	=256	=256	=255	=255
8AA/L	.	4.f#\)	.	4.a/	.	4.dd\	.
8D/	.	.	.	.	.	.	.
8F#/J	.	.	.	.	.	.	.
8A\L	.	(4.d\	.	4.g#/	.	4.b\	.
8A\	.	.	.	.	.	.	.
8A\J	.	.	.	.	.	.	.
=257	=257	=257	=257	=257	=257	=256	=256
8AA/L	.	4c#\)	.	4e/	.	4a/	.
(8AA/	.	.	.	.	.	.	.
8GG#/J	.	8r	.	8r	.	8r	.
8AA/L)	.	(4.g\	.	4.cc#\	.	4.bb-\	.
8AA/	.	.	.	.	.	.	.
8AA/J	.	.	.	.	.	.	.
=258	=258	=258	=258	=258	=258	=257	=257
8AA/L	.	4.f#\	.	4.dd\	.	4.aa\	.
8AA/	.	.	.	.	.	.	.
8AA/J	.	.	.	.	.	.	.
8AA/L	.	4.c#\	.	4.b-\	.	4.gg\	.
8AA/	.	.	.	.	.	.	.
8AA/J	.	.	.	.	.	.	.
=259	=259	=259	=259	=259	=259	=258	=258
8AA/L	.	4.d\	.	4.a/	.	4.ffn\	.
8AA/	.	.	.	.	.	.	.
8AA/J	.	.	.	.	.	.	.
8AA/L	.	4.G/)	.	4.c#/	.	4.ee\	.
8AA/	.	.	.	.	.	.	.
8AA/J	.	.	.	.	.	.	.
=260	=260	=260	=260	=260	=260	=259	=259
8AA/L	.	4.Fn/	.	4.d/	.	4.dd\	.
8D/	.	.	.	.	.	.	.
8Fn/J	.	.	.	.	.	.	.
8AA/L	.	(4.G#/	.	4.d/	.	4.b\	.
8AA/	.	.	.	.	.	.	.
8AA/J	.	.	.	.	.	.	.
=261	=261	=261	=261	=261	=261	=260	=260
4AA/	.	8A/L)	.	8c#/L	.	8a/L	.
.	.	(8c#/	.	8e/	.	8a/	.
8r	.	8d/J	.	8fn/J	.	8g#/J	.
4.r	.	8c#\L)	.	8e/L	.	8a/L	.
.	.	8d\	.	8fn/	.	8g#/	.
.	.	8c#\J	.	8e/J	.	8a/J	.
=262	=262	=262	=262	=262	=262	=261	=261
2.r	.	8e\L	.	8g/L	.	8a#/L	.
.	.	(8d#\	.	8f#/	.	8b/	.
.	.	8e\J	.	8g/J	.	8a#/J	.
.	.	8d#\L)	.	8f#/L	.	8b/L	.
.	.	8e\	.	8g/	.	8a#/	.
.	.	8d#\J	.	8f#/J	.	8b/J	.
=263	=263	=263	=263	=263	=263	=262	=262
2.r	.	8g\L	.	8b-/L	.	8cc#\L	.
.	.	(8f#\	.	8a/	.	8dd\	.
.	.	8g\J	.	8b-/J	.	8cc#\J	.
.	.	8f#\L)	.	8a/L	.	8dd\L	.
.	.	8g\	.	8b-/	.	8cc#\	.
.	.	8f#\J	.	8a/J	.	8dd\J	.
=264	=264	=264	=264	=264	=264	=263	=263
2.r	.	(8a\L	.	8ccn\L	.	8dd#\L	.
.	.	8g#\)	.	8b\	.	8ee\	.
.	.	8g#\J	.	8b\J	.	8ee\J	.
.	.	(8b\L	.	8dd\L	.	8ee#\L	.
.	.	8a#\)	.	8cc#\	.	8ff#\	.
.	.	8a#\J	.	8cc#\J	.	8ff#\J	.
=265	=265	=265	=265	=265	=265	=264	=264
2.r	.	(8ccn\L	<	8ee-\L	<	8ff#\L	<
.	.	8b\)	<	8dd\	<	8gg\	<
.	.	8b\J	.	8dd\J	.	8gg\J	.
.	.	(8dd\L	.	8ffn\L	.	8gg#\L	.
.	.	8cc#\)	.	8ee\	.	8aa\	.
.	.	8cc#\J	.	8ee\J	.	8aa\J	.
=266	=266	=266	=266	=266	=266	=265	=265
(2.AA/	.	8ee\L	.	8gg\L	.	8aa#\L	.
.	.	8dd\	.	8ff#\	.	8bb\	.
.	.	8dd\J	.	8ff#\J	.	8bb\J	.
.	.	8ff#\L	.	8aa\L	.	8bb#\L	.
.	.	8ee\	.	8gg\	.	8ccc#\	.
.	.	8ee\J	.	8gg\J	.	8ccc#\J	.
=267	=267	=267	=267	=267	=267	=266	=266
4DD/)	p	4dd\	p	8ff#\L	p	4ddd\	p
.	.	.	.	8ff#\	.	.	.
8r	.	8r	.	8ff#\J	.	8aa\	.
4D\	.	(4.dd\	.	8ff#\L	.	4aa\	.
.	.	.	.	8ee#\	.	.	.
8r	.	.	.	8ff#\J	.	8ddd\	.
=268	=268	=268	=268	=268	=268	=267	=267
2.r	.	4ee\)	.	8gg\L	.	4ccc#\	.
.	.	.	.	8gg\	.	.	.
.	.	8r	.	8gg\J	.	8aa\	.
.	.	(4.ee\	.	8gg\L	.	4aa\	.
.	.	.	.	8ff#\	.	.	.
.	.	.	.	8gg\J	.	8ccc#\	.
=269	=269	=269	=269	=269	=269	=268	=268
2.r	.	8dd\L)	.	8ff#\L	.	4ddd\	.
.	.	8f#\	.	8a\	.	.	.
.	.	8f#\J	.	8a\J	.	8ddd\	.
.	.	8c#\L	.	8a/L	.	4ddd#\	.
.	.	8c#\	.	8a/	.	.	.
.	.	8c#\J	.	8a/J	.	8eee\	.
=270	=270	=270	=270	=270	=270	=269	=269
2.r	.	8d\L	.	8a\L	.	4fffn\	.
.	.	8dd\	.	8dd\	.	.	.
.	.	8ccn\J	.	8dd\J	.	8fff#\	.
.	.	8b\L	.	8dd\L	.	4ggg\	.
.	.	8b\	.	8dd\	.	.	.
.	.	8b-\J	.	8dd\J	.	8ggg#\	.
=271	=271	=271	=271	=271	=271	=270	=270
4r	.	4a\	.	8cc#/L	.	4aaa\	.
.	.	.	.	8a/	.	.	.
8r	.	8r	.	8a/J	.	8aaa\	.
(4.A\	p	4r	.	8cc#/L	.	4aa\	.
.	.	.	.	8a/	.	.	.
.	.	8r	.	8a/J	.	8aa\	.
=272	=272	=272	=272	=272	=272	=271	=271
4B\)	.	2.r	.	8dd\L	.	4gg#\	.
.	.	.	.	8a\	.	.	.
8r	.	.	.	8a\J	.	8ggg\	.
(4.c#\	.	.	.	8ee\L	.	4gg#\	.
.	.	.	.	8a\	.	.	.
.	.	.	.	8a\J	.	8gg#\	.
=273	=273	=273	=273	=273	=273	=272	=272
4d\)	.	2.r	.	8dd\L	.	4ff#\	.
.	.	.	.	8a\	.	.	.
8r	.	.	.	8a\J	.	8r	.
4G\	.	.	.	8g/L	.	8aa#\L	.
.	.	.	.	8b/	.	8bb\	.
8r	.	.	.	8g/J	.	8ee\J	.
=274	=274	=274	=274	=274	=274	=273	=273
4A\	.	2.r	.	8f#/L	.	8gg#\L	.
.	.	.	.	8a/	.	8aa\	.
8r	.	.	.	8f#/J	.	8dd\J	.
4AA/	.	.	.	8e/L	.	8ff#\L	.
.	.	.	.	8g/	.	8gg\	.
8r	.	.	.	8e/J	.	8cc#\J	.
=275	=275	=275	=275	=275	=275	=274	=274
4D\	.	8d\L	.	8A/L 8f#/	.	4dd\	.
.	.	8d\	.	8A/ 8f#/	.	.	.
8AA/	.	8d\J	.	8A/J 8f#/	.	8r	.
(4AA/	.	8d\L	.	8A/L 8f#/	.	4r	.
.	.	8d\	.	8A/ 8f#/	.	.	.
8D\)	.	8d\J	.	8A/J 8f#/	.	8r	.
=276	=276	=276	=276	=276	=276	=275	=275
4C#/	.	8e\L	.	8A/L 8g/	.	2.r	.
.	.	8e\	.	8A/ 8g/	.	.	.
8AA/	.	8e\J	.	8A/J 8g/	.	.	.
(4AA/	.	8e\L	.	8A/L 8g/	.	.	.
.	.	8e\	.	8A/ 8g/	.	.	.
8C#/)	.	8e\J	.	8A/J 8g/	.	.	.
=277	=277	=277	=277	=277	=277	=276	=276
4D\	.	8d\L	.	8A/L 8f#/	.	8r	.
.	.	8f#\	.	8a/	.	8r	.
8r	.	8f#\J	.	8a/J	.	8aa\	.
(4.d\	.	8f#\L	.	8a/L	.	4aa\	.
.	.	8f#\	.	8a/	.	.	.
.	.	8f#\J	.	8a/J	.	8ddd\	.
=278	=278	=278	=278	=278	=278	=277	=277
4e\)	.	8g\L	.	8a/L	.	4ccc#\	.
.	.	8g\	.	8a/	.	.	.
8r	.	8g\J	.	8a/J	.	8aa\	.
(4.e\	.	8g\L	.	8a/L	.	4aa\	.
.	.	8g\	.	8a/	.	.	.
.	.	8g\J	.	8a/J	.	8ccc#\	.
=279	=279	=279	=279	=279	=279	=278	=278
4d\)	.	8f#\L	.	8a/L	.	4ddd\	.
.	.	8d\	.	8f#/	.	.	.
8d\	.	8d\J	.	8f#/J	.	8r	.
4D\	.	8d\L	.	8f#/L	.	4r	.
.	.	8d\	.	8f#/	.	.	.
8D\	.	8d\J	.	8f#/J	.	8r	.
=280	=280	=280	=280	=280	=280	=279	=279
4C#/	.	8e\L	.	8g/L	.	2.r	.
.	.	8e\	.	8g/	.	.	.
8cn\	.	8e\J	.	8g/J	.	.	.
4Cn/	.	8f#\L	.	8a/L	.	.	.
.	.	8f#\	.	8a/	.	.	.
8Cn/	.	8f#\J	.	8a/J	.	.	.
=281	=281	=281	=281	=281	=281	=280	=280
4BB/	.	4g\	.	8b/L	.	8r	.
.	.	.	.	8d/	.	8r	.
8r	.	8r	.	8d/J	.	8ddd\	.
4D\	.	4r	.	8f#/L	.	4dd\	.
.	.	.	.	8d/	.	.	.
8r	.	8r	.	8d/J	.	8dd\	.
=282	=282	=282	=282	=282	=282	=281	=281
4E\	.	2.r	.	8g/L	.	4cc#\	.
.	.	.	.	8d/	.	.	.
8r	.	.	.	8d/J	.	8cccn\	.
4F#\	.	.	.	8a/L	.	4ccn\	.
.	.	.	.	8d/	.	.	.
8r	.	.	.	8d/J	.	8ccn\	.
=283	=283	=283	=283	=283	=283	=282	=282
4G\	.	8r	.	8b\L	.	4b\	.
.	.	8d\L	.	8dd\	.	.	.
8r	.	8d\J	.	8dd\J	.	8bb\	.
4D\	<	8f#\L	<	8ff#\L	<	4dd\	<
.	.	8d\	<	8dd\	<	.	.
8r	<	8d\J	.	8dd\J	.	8ddd\	<
=284	=284	=284	=284	=284	=284	=283	=283
4E\	.	8f#\L	.	8gg\L	.	4cc#\	.
.	.	8d\	.	8dd\	.	.	.
8r	.	8d\J	.	8dd\J	.	8ccc#\	.
4F#\	.	8a\L	.	8aa\L	.	4ccn\	.
.	.	8d\	.	8dd\	.	.	.
8r	.	8d\J	.	8dd\J	.	8cccn\	.
=285	=285	=285	=285	=285	=285	=284	=284
4G\	.	8g\L	.	8gg\L	.	4b\	.
.	.	8d\	.	8dd\	.	.	.
8r	.	8d\J	.	8dd\J	.	8bb\	.
4G\	.	8g\L	.	8gg\L	.	4b-\	.
.	.	8d\	.	8dd\	.	.	.
8r	.	8d\J	.	8dd\J	.	8bb-\	.
=286	=286	=286	=286	=286	=286	=285	=285
4A\	.	8f#\L	.	8ff#\L	.	4a/	.
.	.	8d\	.	8dd\	.	.	.
8r	.	8d\J	.	8dd\J	.	8aa\	.
4B-\	.	8fn\L	.	8ffn\L	.	4g#/	.
.	.	8d\	.	8dd\	.	.	.
8r	.	8d\J	.	8dd\J	.	8gg#\	.
=287	=287	=287	=287	=287	=287	=286	=286
4A\	f	4e\	f	4cc#\	f	4g/	f
8r	.	8r	.	8r	.	16cc#\LL	.
.	.	.	.	.	.	16dd\JJ	.
4r	.	4r	.	4r	.	8ee\L	.
.	.	.	.	.	.	8cc#\	.
8r	.	8r	.	8r	.	8g\J	.
=288	=288	=288	=288	=288	=288	=287	=287
4A\	f	4A/	f	4d/	f	4f#/	f
8r	.	8r	.	8r	.	16ff#\LL	.
.	.	.	.	.	.	16gg\JJ	.
4r	.	4r	.	4r	.	8aa\L	.
.	.	.	.	.	.	8ff#\	.
8r	.	8r	.	8r	.	8dd\J	.
=289	=289	=289	=289	=289	=289	=288	=288
4A\	f	4c#\	f	4e/	f	4g/	f
8r	.	8r	.	8r	.	16ee\LL	.
.	.	.	.	.	.	16ff#\JJ	.
4r	.	4r	.	4r	.	8gg\L	.
.	.	.	.	.	.	8ee\	.
8r	.	8r	.	8r	.	8cc#\J	.
=290	=290	=290	=290	=290	=290	=289	=289
4r	.	4r	.	4r	.	8g/L	.
.	.	.	.	.	.	8e/	.
8r	.	8r	.	8r	.	8c#/J	.
8AA/L	ff	8A/L	ff	8A/L	ff	8A/L	ff
8AA/	.	8A/	.	8A/	.	8A/	.
8AA/J	.	8A/J	.	8A/J	.	8A/J	.
=291	=291	=291	=291	=291	=291	=290	=290
(2.BB-/	.	(4B-/	f	4B-/	.	4B-/	.
.	.	8Fn/	p	8r	.	8r	.
.	.	4B-/	.	4.r	.	4r	.
.	.	8Fn/)	.	.	.	8dd\	p
=292	=292	=292	=292	=292	=292	=291	=291
2.AA/)	.	(4cn\	.	2.r	.	4ee-\	.
.	.	8Fn/	.	.	.	8dd\	.
.	.	4cn\	.	.	.	4ee-\	.
.	.	8Fn/)	.	.	.	8ffn\	.
=293	=293	=293	=293	=293	=293	=292	=292
(2.BB-/	.	(4B-/	.	4r	.	4dd\	.
.	.	8Fn/	.	8r	.	8r	.
.	.	4B-/	.	4r	.	4r	.
.	.	8Fn/)	.	8dd\	p	8ddd\	.
=294	=294	=294	=294	=294	=294	=293	=293
2.AA/)	.	(4cn\	.	4ee-\	.	4eee-\	.
.	.	8Fn/	.	8dd\	.	8ddd\	.
.	.	4cn\	.	4ee-\	.	4eee-\	.
.	.	8Fn/)	.	8ffn\	.	8fffn\	.
=295	=295	=295	=295	=295	=295	=294	=294
(2.BB-/	.	(4B-/	.	4dd\	.	4ddd\	.
.	.	8Fn/	.	8r	.	8r	.
.	.	4B-/	.	4r	.	4r	.
.	.	8Fn/)	.	8dd\	.	8ddd\	.
=296	=296	=296	=296	=296	=296	=295	=295
2.AA/)	.	(4cn\	.	4ee-\	.	4eee-\	.
.	.	8Fn/	.	8dd\	.	8ddd\	.
.	.	4cn\	.	4ee-\	.	4eee-\	.
.	.	8Fn/)	.	8ffn\	.	8fffn\	.
=297	=297	=297	=297	=297	=297	=296	=296
4BB-/	.	4B-/	.	4dd\	.	4ddd\	.
8r	.	8r	.	8r	.	8fffn\	pp
4r	.	4r	.	4r	.	4bbb-\	.
8r	.	8r	.	8r	.	8r	.
=298	=298	=298	=298	=298	=298	=297	=297
(2.GG#/	ff	(2.G#/	ff	2.G#/	ff	2.G#/	ff
=299	=299	=299	=299	=299	=299	=298	=298
8AA\L)	.	8A/L)	.	8A/L	.	8A/L	.
8A\	.	8d/	.	8f#/	.	8d/	.
8A\J	.	8d/J	.	8f#/J	.	8f#/J	.
8A\L	.	8d\L	.	8f#/L	.	8a\L	.
8A\	.	8d\	.	8f#/	.	8dd\	.
8A\J	.	8d\J	.	8f#/J	.	8ff#\J	.
=300	=300	=300	=300	=300	=300	=299	=299
8A\L	.	8d\L	.	8f#/L	.	4aa\	.
8A\	.	8d\	.	8f#/	.	.	.
8A\J	.	8d\J	.	8f#/J	.	8r	.
8A\L	.	8e\L	.	8g/L	.	4.cc#\	.
8A\	.	8e\	.	8g/	.	.	.
8A\J	.	8e\J	.	8g/J	.	.	.
=301	=301	=301	=301	=301	=301	=300	=300
4D\	.	4d\	.	4f#/	.	4dd\	.
8r	.	8fn\	pp	8ffn\	pp	8r	.
4.r	.	4b-\	.	4bb-\	.	4r	.
.	.	8r	.	8r	.	8r	.
=302	=302	=302	=302	=302	=302	=301	=301
(2.AA-/	ff	(2.A-/	ff	2.A-/	ff	2.A-/	ff
=303	=303	=303	=303	=303	=303	=302	=302
4GG/)	.	4G/)	.	4G/	.	8G/L	.
.	.	.	.	.	.	8B-/	.
8r	.	8r	.	8r	.	8e-/J	.
4r	.	4r	.	4G/ 4e-/ 4b-/	.	8g\L	.
.	.	.	.	.	.	8b-\	.
8r	.	8r	.	8r	.	8ee-\J	.
=304	=304	=304	=304	=304	=304	=303	=303
4GG#/	.	4G#/	.	4r	.	8B/L	.
.	.	.	.	.	.	8d/	.
8r	.	8r	.	8r	.	8fn/J	.
4r	.	4r	.	4G#/ 4fn/ 4dd/	.	8b\L	.
.	.	.	.	.	.	8dd\	.
8r	.	8r	.	8r	.	8ffn\J	.
=305	=305	=305	=305	=305	=305	=304	=304
4AA/	.	4A/	.	4r	.	8d/L	.
.	.	.	.	.	.	8f#/	.
8r	.	8r	.	8r	.	8a/J	.
4r	.	4r	.	4A/ 4f#/ 4dd/	.	8dd\L	.
.	.	.	.	.	.	8ff#\	.
8r	.	8r	.	8r	.	8aa\J	.
=306	=306	=306	=306	=306	=306	=305	=305
4AA/	.	4A/	.	4r	.	8gg\L	.
.	.	.	.	.	.	8ee\	.
8r	.	8r	.	8r	.	8cc#\J	.
4r	.	4r	.	4A/ 4e/ 4cc#/	.	8g/L	.
.	.	.	.	.	.	8e/	.
8r	.	8r	.	8r	.	8c#/J	.
=307	=307	=307	=307	=307	=307	=306	=306
8DD/L	.	4D/	.	4r	.	4d/	.
8FF#/	.	.	.	.	.	.	.
8AA/J	.	8r	.	8r	.	8r	.
(4BB/	.	8r	.	8r	.	8r	.
.	.	8e\L	.	8g/L	.	8cc#\L	.
8AA/)	.	8e\J	.	8g/J	.	8cc#\J	.
=308	=308	=308	=308	=308	=308	=307	=307
8DD/L	.	4d\	.	4f#/	.	4dd\	.
8FF#/	.	.	.	.	.	.	.
8AA/J	.	8r	.	8r	.	8r	.
(4BB/	.	8r	.	8r	.	8r	.
.	.	8e\L	.	8cc#\L	.	8gg\L	.
8AA/)	.	8e\J	.	8cc#\J	.	8gg\J	.
=309	=309	=309	=309	=309	=309	=308	=308
8DD/L	.	4d\	.	4dd\	.	4ff#\	.
8FF#/	.	.	.	.	.	.	.
8AA/J	.	8r	.	8r	.	8r	.
(4BB/	.	8r	.	8r	.	8r	.
.	.	8ee\L	.	8gg\L	.	8ccc#\L	.
8AA/)	.	8ee\J	.	8gg\J	.	8ccc#\J	.
=310	=310	=310	=310	=310	=310	=309	=309
(4BB/	.	4dd\	.	4ff#\	.	4ddd\	.
8AA/)	.	8r	.	8r	.	8r	.
(4BB/	.	8r	.	8r	.	8r	.
.	.	8e\L	.	8g/L	.	8cc#\L	.
8AA/)	.	8e\J	.	8g/J	.	8cc#\J	.
=311	=311	=311	=311	=311	=311	=310	=310
4DD/	.	4d\	.	4f#/	.	8dd\L	.
.	.	.	.	.	.	8ff#\	.
8r	.	8r	.	8r	.	8aa\J	.
8r	.	8r	.	8r	.	4bb\	.
8A\L	.	8g\L	.	8cc#\L	.	.	.
8A\J	.	8g\J	.	8cc#\J	.	8aa\	.
=312	=312	=312	=312	=312	=312	=311	=311
4d\	.	4f#\	.	4dd\	.	8dd\L	.
.	.	.	.	.	.	8ff#\	.
8r	.	8r	.	8r	.	8aa\J	.
8r	.	8r	.	8r	.	4bb\	.
8AA/L	.	8g\L	.	8cc#\L	.	.	.
8AA/J	.	8g\J	.	8cc#\J	.	8aa\	.
=313	=313	=313	=313	=313	=313	=312	=312
8D\L	p	4f#\	p	4dd\	p	8dd\L	p
8d\	.	.	.	.	.	8ff#\	.
8d\J	.	8r	.	8r	.	8aa\J	.
8d\L	.	(4.ccn\	.	4.ee\	.	4bb\	.
8d\	.	.	.	.	.	.	.
8d\J	.	.	.	.	.	8aa\	.
=314	=314	=314	=314	=314	=314	=313	=313
8d\L	.	4.b\	.	4.dd\	.	4aa\	.
8d\	.	.	.	.	.	.	.
8d\J	.	.	.	.	.	8gg\	.
8d\L	.	4.a\	.	4.ccn\	.	4gg\	.
8d\	.	.	.	.	.	.	.
8d\J	.	.	.	.	.	8ff#\	.
=315	=315	=315	=315	=315	=315	=314	=314
8d\L	<	4.g\	<	4.b\	<	4ff#\	<
8D\	<	.	.	.	.	.	.
8D\J	.	.	.	.	.	8ee\	<
8D\L	.	4.f#\	<	4.a/	<	4ee\	.
8D\	.	.	.	.	.	.	.
8D\J	.	.	.	.	.	8dd\	.
=316	=316	=316	=316	=316	=316	=315	=315
8D\L	.	4.f#\	.	4.g/	.	4dd\	.
8D\	.	.	.	.	.	.	.
8D\J	.	.	.	.	.	8ccn\	.
8D\L	.	4.f#\	.	4.f#/	.	4ccn\	.
8D\	.	.	.	.	.	.	.
8D\J	.	.	.	.	.	8b\	.
=317	=317	=317	=317	=317	=317	=316	=316
8D\L	.	4.cn\	.	4.e/	.	4b\	.
8D\	.	.	.	.	.	.	.
8D\J	.	.	.	.	.	8a/	.
8D\L	.	4.B/	.	4.d/	.	4a/	.
8D\	.	.	.	.	.	.	.
8D\J	.	.	.	.	.	8g#/	.
=318	=318	=318	=318	=318	=318	=317	=317
8D\L	.	4.A#/	.	4.c#/	.	4g#/	.
8D\	.	.	.	.	.	.	.
8D\J	.	.	.	.	.	8g/	.
8D\L	.	4.A/)	.	4.cn/	.	4g/	.
8D\	.	.	.	.	.	.	.
8D\J	.	.	.	.	.	8f#/	.
=319	=319	=319	=319	=319	=319	=318	=318
[2.D\	f	[2.A/	f	[2.cn/	f	8f#/L	.
.	.	.	.	.	.	8a/	.
.	.	.	.	.	.	8g#/J	.
.	.	.	.	.	.	8a\L	.
.	.	.	.	.	.	8ccn\	.
.	.	.	.	.	.	8b\J	.
=320	=320	=320	=320	=320	=320	=319	=319
2.D\]	.	2.A/]	.	2.c/]	.	8ccn/L	.
.	.	.	.	.	.	8a/	.
.	.	.	.	.	.	8g#/J	.
.	.	.	.	.	.	8a/L	.
.	.	.	.	.	.	8f#/	.
.	.	.	.	.	.	8e#/J	.
=321	=321	=321	=321	=321	=321	=320	=320
[2.C#/	f	[2.A/	f	[2.c#/	f	8f#/L	f
.	.	.	.	.	.	8a/	.
.	.	.	.	.	.	8g#/J	.
.	.	.	.	.	.	8a\L	.
.	.	.	.	.	.	8cc#\	.
.	.	.	.	.	.	8b#\J	.
=322	=322	=322	=322	=322	=322	=321	=321
2.C#/]	.	2.A/]	.	2.c#/]	.	8cc#\L	.
.	.	.	.	.	.	8ff#\	.
.	.	.	.	.	.	8ee#\J	.
.	.	.	.	.	.	8ff#\L	.
.	.	.	.	.	.	8aa\	.
.	.	.	.	.	.	8gg#\J	.
=323	=323	=323	=323	=323	=323	=322	=322
2.Cn/	f	2.A/	f	2.d#/	f	8aa\L	f
.	.	.	.	.	.	8ff#\	.
.	.	.	.	.	.	8ee#\J	.
.	.	.	.	.	.	8ff#\L	.
.	.	.	.	.	.	8aa\	.
.	.	.	.	.	.	8gg#\J	.
=324	=324	=324	=324	=324	=324	=323	=323
2.BB/	f	2.A/	f	2.d#/	f	8aa\L	f
.	.	.	.	.	.	8ff#\	.
.	.	.	.	.	.	8ee#\J	.
.	.	.	.	.	.	8ff#\L	.
.	.	.	.	.	.	8aa\	.
.	.	.	.	.	.	8dd#\J	.
=325	=325	=325	=325	=325	=325	=324	=324
2.BB/	f	2.G/	f	2.e/	f	8ee\L	f
.	.	.	.	.	.	8gg\	.
.	.	.	.	.	.	8ff#\J	.
.	.	.	.	.	.	8gg\L	.
.	.	.	.	.	.	8ccc#\	.
.	.	.	.	.	.	8bb#\J	.
=326	=326	=326	=326	=326	=326	=325	=325
2.BB-/	f	2.G/	f	2.c#/ 2.e/	f	8ccc#\L	f
.	.	.	.	.	.	8eee\	.
.	.	.	.	.	.	8ddd#\J	.
.	.	.	.	.	.	8eee\L	.
.	.	.	.	.	.	8ggg\	.
.	.	.	.	.	.	8fff#\J	.
=327	=327	=327	=327	=327	=327	=326	=326
8AA/L	p	2.E/	p	2.c#/	p	2.ggg\	p
(8AA/	.	.	.	.	.	.	.
8GG#/J	.	.	.	.	.	.	.
8AA/L)	.	.	.	.	.	.	.
8BB/	.	.	.	.	.	.	.
8C#/J	.	.	.	.	.	.	.
=328	=328	=328	=328	=328	=328	=327	=327
8D\L	.	2.e\	.	[2.cc#\	.	2.gg\	.
8E\	.	.	.	.	.	.	.
8F#\J	.	.	.	.	.	.	.
8G\L	.	.	.	.	.	.	.
8G#\	.	.	.	.	.	.	.
8A\J	.	.	.	.	.	.	.
=329	=329	=329	=329	=329	=329	=328	=328
[2.AA/	.	[2.d\	.	4.cc#\]	.	8ff#\L	.
.	.	.	.	.	.	8fff#\	.
.	.	.	.	.	.	8eee#\J	.
.	.	.	.	4.a#/	.	8fff#\L	.
.	.	.	.	.	.	8eee#\	.
.	.	.	.	.	.	8ddd\J	.
=330	=330	=330	=330	=330	=330	=329	=329
8AA/L]	.	4.d\]	.	[2.b\	.	8ccc#\L	.
8AA/	.	.	.	.	.	8bb\	.
8GG#/J	.	.	.	.	.	8aa\J	.
8AA/L	.	4.D/	.	.	.	8gg\L	.
8BB/	.	.	.	.	.	8ff#\	.
8C#/J	.	.	.	.	.	8fff#\J	.
=331	=331	=331	=331	=331	=331	=330	=330
8D\L	.	2.C#/	.	2.b\]	.	2.eee\	.
8E\	.	.	.	.	.	.	.
8F#\J	.	.	.	.	.	.	.
8G\L	.	.	.	.	.	.	.
8G#\	.	.	.	.	.	.	.
8A\J	.	.	.	.	.	.	.
=332	=332	=332	=332	=332	=332	=331	=331
[2.AA/	.	2.c#\	.	[2.a/	.	2.ee\	.
=333	=333	=333	=333	=333	=333	=332	=332
2.AA/_	.	[2.B/	.	4.a/]	.	8dd\L	.
.	.	.	.	.	.	8ddd\	.
.	.	.	.	.	.	8ccc#\J	.
.	.	.	.	4.f#/	.	8ddd\L	.
.	.	.	.	.	.	8ccc#\	.
.	.	.	.	.	.	8bb\J	.
=334	=334	=334	=334	=334	=334	=333	=333
2.AA/_	.	4.B/]	.	[2.g/	.	8aa\L	.
.	.	.	.	.	.	8gg\	.
.	.	.	.	.	.	8ff#\J	.
.	.	(4.B-/	.	.	.	8ee\L	.
.	.	.	.	.	.	8dd\	.
.	.	.	.	.	.	8ddd\J	.
=335	=335	=335	=335	=335	=335	=334	=334
2.AA/_	<	4.A/)	<	4.g/]	<	8cc#\L	<
.	.	.	.	.	.	8ccc#\	<
.	.	.	.	.	.	8bb\J	.
.	.	(4.C#/	<	4.e#/	<	8aa\L	.
.	.	.	.	.	.	8gg\	.
.	.	.	.	.	.	8ff#\J	.
=336	=336	=336	=336	=336	=336	=335	=335
2.AA/_	<	4.D/	.	4.f#/	.	8ee\L	.
.	.	.	.	.	.	8dd\	.
.	.	.	.	.	.	8cc#\J	.
.	.	4.D#/	.	4.f#/	.	8b\L	.
.	.	.	.	.	.	8bb\	.
.	.	.	.	.	.	8aa\J	.
=337	=337	=337	=337	=337	=337	=336	=336
2.AA/_	.	4.E/	.	4.g/	.	8gg\L	.
.	.	.	.	.	.	8ff#\	.
.	.	.	.	.	.	8ee\J	.
.	.	4.E#/	.	4.g#/	.	8dd\L	.
.	.	.	.	.	.	8cc#\	.
.	.	.	.	.	.	8b\J	.
=338	=338	=338	=338	=338	=338	=337	=337
2.AA/_	.	4.F#/)	.	4.a/	.	8a\L	.
.	.	.	.	.	.	8aa\	.
.	.	.	.	.	.	8gg\J	.
.	.	8F#/L	.	8a#/L	.	8ff#\L	.
.	.	8F#/	.	8a#/	.	8ee\	.
.	.	8F#/J	.	8a#/J	.	8dd\J	.
=339	=339	=339	=339	=339	=339	=338	=338
2.AA/_	.	8G/L	.	8b\L	.	8cc#\L	.
.	.	8G/	.	8b\	.	8b\	.
.	.	8G/J	.	8b\J	.	8a\J	.
.	.	8E/L	.	8cc#\L	.	8g\L	.
.	.	8E/	.	8cc#\	.	8gg\	.
.	.	8E/J	.	8cc#\J	.	8ff#\J	.
=340	=340	=340	=340	=340	=340	=339	=339
2.AA/]	.	8F#/L	.	8dd\L	.	8ee\L	.
.	.	(8f#/	.	8aa\	.	8dd\	.
.	.	8e/J	.	8aa\J	.	8cc#\J	.
.	.	8f#/L)	.	8aa\L	.	8dd/L	.
.	.	8F#/	.	8d\	.	8a/	.
.	.	8D/J	.	8d\J	.	8f#/J	.
=341	=341	=341	=341	=341	=341	=340	=340
8AA/L	f	2.G/	f	2.c#/	f	2.e/	f
(8AA/	.	.	.	.	.	.	.
8GG#/J	.	.	.	.	.	.	.
8AA/L)	.	.	.	.	.	.	.
(8AA/	.	.	.	.	.	.	.
8GG#/J	.	.	.	.	.	.	.
=342	=342	=342	=342	=342	=342	=341	=341
8AA/L)	.	2.g\	.	2.cc#\	.	2.ee\	.
(8AA/	.	.	.	.	.	.	.
8GG#/J	.	.	.	.	.	.	.
8AA/L)	.	.	.	.	.	.	.
8AA/	.	.	.	.	.	.	.
8AA/J	.	.	.	.	.	.	.
=343	=343	=343	=343	=343	=343	=342	=342
4DD/	.	8f#\L	.	4dd\	.	2.dd\	.
.	.	(8d\	.	.	.	.	.
8r	.	8c#\J	.	8r	.	.	.
4.r	.	8d/L)	.	4.r	.	.	.
.	.	(8B/	.	.	.	.	.
.	.	8A#/J	.	.	.	.	.
=344	=344	=344	=344	=344	=344	=343	=343
2.r	.	8B/L)	.	2.r	.	[2.ddd\	.
.	.	(8A/	.	.	.	.	.
.	.	8G/J	.	.	.	.	.
.	.	8A/L)	.	.	.	.	.
.	.	(8E/	.	.	.	.	.
.	.	8D#/J)	.	.	.	.	.
=345	=345	=345	=345	=345	=345	=344	=344
2.r	.	8E/L	.	2.r	.	4.ddd\]	.
.	.	8F#/	.	.	.	.	.
.	.	8G/J	.	.	.	.	.
.	.	8A/L	.	.	.	4ccc#\	.
.	.	8B/	.	.	.	.	.
.	.	8c#/J	.	.	.	8bb\	.
=346	=346	=346	=346	=346	=346	=345	=345
2.r	.	8d\L	.	2.r	.	4aa\	.
.	.	8e\	.	.	.	.	.
.	.	8f#\J	.	.	.	8gg\	.
.	.	4g\	.	.	.	4ff#\	.
.	.	8r	.	.	.	8ee\	.
=347	=347	=347	=347	=347	=347	=346	=346
8r	.	8r	.	2.dd\	.	2.ff#\	.
(8d\L	.	(8f#\L	.	.	.	.	.
8c#\J	.	8e#\J	.	.	.	.	.
8d\L)	.	8f#\L)	.	.	.	.	.
(8B\	.	(8d\	.	.	.	.	.
8A#\J)	.	8c#\J	.	.	.	.	.
=348	=348	=348	=348	=348	=348	=347	=347
8B\L	.	8d/L)	.	[2.ddd\	.	[2.fff#\	.
(8G\	.	(8B/	.	.	.	.	.
8F#\J	.	8A#/J	.	.	.	.	.
8G\L)	.	8B/L)	.	.	.	.	.
(8E\	.	(8G/	.	.	.	.	.
8D#\J	.	8F#/J	.	.	.	.	.
=349	=349	=349	=349	=349	=349	=348	=348
8E\L)	.	8G/L)	.	4.ddd\]	.	4.fff#\]	.
8F#\	.	8A/	.	.	.	.	.
8G\J	.	8B/J	.	.	.	.	.
8A\L	.	8c#\L	.	4ccc#\	.	4eee\	.
8B\	.	8d\	.	.	.	.	.
8c#\J	.	8e\J	.	8bb\	.	8ddd\	.
=350	=350	=350	=350	=350	=350	=349	=349
8d\L	.	8f#\L	.	4aa\	.	4ccc#\	.
8e\	.	8g\	.	.	.	.	.
8f#\J	.	8a\J	.	8gg\	.	8bb\	.
4g\	.	8b\L	.	4ff#\	.	4aa\	.
.	.	8ccn\	.	.	.	.	.
8r	.	8cc#\J	.	8ee\	.	8gg\	.
=351	=351	=351	=351	=351	=351	=350	=350
2.DD/	f	4dd\	.	4dd\	.	8ff#\L	.
.	.	.	.	.	.	8dd\	.
.	.	8r	.	8r	.	8cc#\J	.
.	.	4D/	f	4r	.	8dd\L	.
.	.	.	.	.	.	8b\	.
.	.	8r	.	8r	.	8a#\J	.
=352	=352	=352	=352	=352	=352	=351	=351
[2.D\	.	[2.d\	.	4r	.	8b/L	.
.	.	.	.	.	.	8g/	.
.	.	.	.	8r	.	8f#/J	.
.	.	.	.	4e/	.	8g/L	.
.	.	.	.	.	.	8e/	.
.	.	.	.	8r	.	8d#/J	.
=353	=353	=353	=353	=353	=353	=352	=352
4.D\]	.	4.d\]	.	[4.ee\	.	8e/L	.
.	.	.	.	.	.	8f#/	.
.	.	.	.	.	.	8g/J	.
4C#/	.	4c#\	.	4ee\]	.	8a\L	.
.	.	.	.	.	.	8b\	.
8BB/	.	8B/	.	8dd\	.	8cc#\J	.
=354	=354	=354	=354	=354	=354	=353	=353
4AA/	.	4A/	.	4cc#\	.	8dd\L	.
.	.	.	.	.	.	8ee\	.
8GG/	.	8G/	.	8b\	.	8ff#\J	.
4FF#/	.	4F#/	.	4a/	.	4gg\	.
8EE/	.	8E/	.	8g/	.	8r	.
=355	=355	=355	=355	=355	=355	=354	=354
4DD/	.	4D/	.	8f#/L	.	8r	.
.	.	.	.	8dd/	.	8ff#\L	.
8r	.	8r	.	8cc#/J	.	8ee#\J	.
4D\	.	4F#/	.	8dd\L	.	8ff#\L	.
.	.	.	.	8b\	.	8dd\	.
8r	.	8r	.	8a#\J	.	8cc#\J	.
=356	=356	=356	=356	=356	=356	=355	=355
[2.d\	.	[2.f#\	.	8b/L	.	8dd\L	.
.	.	.	.	8g/	.	8b\	.
.	.	.	.	8f#/J	.	8a#\J	.
.	.	.	.	8g/L	.	8b/L	.
.	.	.	.	8e/	.	8g/	.
.	.	.	.	8d#/J	.	8f#/J	.
=357	=357	=357	=357	=357	=357	=356	=356
4.d\]	.	4.f#\]	.	8e/L	.	8g/L	.
.	.	.	.	8f#/	.	8a/	.
.	.	.	.	8g/J	.	8b/J	.
4c#\	.	4e\	.	8a\L	.	8cc#\L	.
.	.	.	.	8b\	.	8dd\	.
8B\	.	8d\	.	8cc#\J	.	8ee\J	.
=358	=358	=358	=358	=358	=358	=357	=357
4A\	.	4c#\	.	8dd\L	.	8ff#\L	.
.	.	.	.	8ee\	.	8gg\	.
8G\	.	8B/	.	8ff#\J	.	8aa\J	.
4F#\	.	4A/	.	8gg\L	.	8bb\L	.
.	.	.	.	8gg\	.	8cccn\	.
8E\	.	8G/	.	8gg\J	.	8ccc#\J	.
=359	=359	=359	=359	=359	=359	=358	=358
4D\	ff	4F#/	ff	8ff#\L	ff	4ddd\	ff
.	.	.	.	8dd\	.	.	.
8r	.	8r	.	8cc#\J	.	8r	.
4r	.	4f#\ 4a\	.	8dd\L	.	4r	.
.	.	.	.	8dd\	.	.	.
8r	.	8r	.	8dd\J	.	8r	.
=360	=360	=360	=360	=360	=360	=359	=359
4GG/	.	4r	.	8r	.	4g\ 4dd\ 4bb\	.
.	.	.	.	8dd\L	.	.	.
8r	.	8r	.	8cc#\J	.	8r	.
4r	.	4G\ 4d\ 4b\	.	8dd\L	.	4r	.
.	.	.	.	8dd\	.	.	.
8r	.	8r	.	8dd\J	.	8r	.
=361	=361	=361	=361	=361	=361	=360	=360
4AA/	.	4r	.	8r	.	4f#\ 4dd\ 4aa\	.
.	.	.	.	8dd\L	.	.	.
8r	.	8r	.	8cc#\J	.	8r	.
4r	.	4A\ 4f#\	.	8dd\L	.	4r	.
.	.	.	.	8dd\	.	.	.
8r	.	8r	.	8dd\J	.	8r	.
=362	=362	=362	=362	=362	=362	=361	=361
4AA/	.	4r	.	8r	.	4A/ 4e/ 4cc#/	.
.	.	.	.	8a/L	.	.	.
8r	.	8r	.	8g#/J	.	8r	.
4r	.	4A\ 4g\	.	8a/L	.	4r	.
.	.	.	.	8a/	.	.	.
8r	.	8r	.	8a/J	.	8r	.
=363	=363	=363	=363	=363	=363	=362	=362
4D\	.	4A\ 4f#\	.	4a/	.	4A/ 4f#/ 4dd/	.
8r	.	8r	.	8r	.	8r	.
4r	.	4r	.	4r	.	8r	.
.	.	.	.	.	.	8a/L	p
8r	.	8r	.	8r	.	8g#/J	.
=364	=364	=364	=364	=364	=364	=363	=363
(2.AA/	p	(2.G/	p	2.c#/	p	[2.a/	.
=365	=365	=365	=365	=365	=365	=364	=364
4D\)	.	4F#/)	.	4d/	.	8a\L]	.
.	.	.	.	.	.	8dd\	.
8r	.	8r	.	8r	.	8ee\J	.
4r	.	4r	.	4r	.	8ff#\L	.
.	.	.	.	.	.	8gg\	.
8r	.	8r	.	8r	.	8gg#\J	.
=366	=366	=366	=366	=366	=366	=365	=365
(2.A\	.	(2.g\	.	2.cc#\	.	[2.aa\	.
=367	=367	=367	=367	=367	=367	=366	=366
4d\)	.	4f#\)	.	4dd\	.	4aa\]	.
8r	.	8r	.	8r	.	8r	.
4r	.	4r	.	4r	.	8r	.
.	.	.	.	.	.	8ddd\L	.
8r	.	8r	.	8r	.	8ccc#\J	.
=368	=368	=368	=368	=368	=368	=367	=367
2.r	.	2.r	.	2.r	.	4ddd\	.
.	.	.	.	.	.	8r	.
.	.	.	.	.	.	8r	.
.	.	.	.	.	.	8dd\L	.
.	.	.	.	.	.	8cc#\J	.
=369	=369	=369	=369	=369	=369	=368	=368
4r	.	4r	.	4r	.	4dd\	.
8r	.	8r	.	8r	.	8r	.
8r	.	8r	.	8r	.	8r	.
(8DD/L	pp	(8D/L	pp	8d/L	pp	8d/L	pp
8CC#/J	.	8C#/J	.	8c#/J	.	8c#/J	.
=370	=370	=370	=370	=370	=370	=369	=369
4DD/)	.	4D/)	.	4d/	.	4d/	.
8r	.	8r	.	8r	.	8r	.
8r	.	8r	.	8r	.	8r	.
(8DD/L	pp	(8D/L	.	8d/L	.	8d/L	.
8CC#/J	.	8C#/J	.	8c#/J	.	8c#/J	.
=371	=371	=371	=371	=371	=371	=370	=370
4DD/)	.	4D/)	.	4d/	.	4d/	.
8r	.	8r	.	8r	.	8r	.
4r	.	4r	.	4r	.	4r	.
8r	.	8r	.	8r	.	8r	.
=372	=372	=372	=372	=372	=372	=371	=371
4r	.	4r	.	4r	.	4r	.
8r	.	8r	.	8r	.	8r	.
8r	.	8r	.	8r	.	8r	.
==	==	==	==	==	==	==	==
*-	*-	*-	*-	*-	*-	*-	*-
!!!ENC: Craig Stuart Sapp
!!!END: 2006/03/11/
